;FLAVOR:Marlin
;TIME:9661
;Filament used: 6.75074m
;Layer height: 0.2
;MINX:62.15
;MINY:81.8
;MINZ:0.2
;MAXX:172.85
;MAXY:153.2
;MAXZ:22.8
;Generated with Cura_SteamEngine 4.11.0
M140 S50
M105
M190 S50
M104 S200
M105
M109 S200
M82 ;absolute extrusion mode
; Ender 3 Custom Start G-code
G92 E0 ; Reset Extruder
G28 ; Home all axes
G1 Z2.0 F3000 ; Move Z Axis up little to prevent scratching of Heat Bed
G1 X0.1 Y20 Z0.3 F5000.0 ; Move to start position
G1 X0.1 Y200.0 Z0.3 F1500.0 E15 ; Draw the first line
G1 X0.4 Y200.0 Z0.3 F5000.0 ; Move to side a little
G1 X0.4 Y20 Z0.3 F1500.0 E30 ; Draw the second line
G92 E0 ; Reset Extruder
G1 Z2.0 F3000 ; Move Z Axis up little to prevent scratching of Heat Bed
G1 X5 Y20 Z0.3 F5000.0 ; Move over to prevent blob squish
G92 E0
G92 E0
G1 F2700 E-5
;LAYER_COUNT:115
;LAYER:0
M107
G0 F6000 X84.548 Y85.064 Z0.2
;TYPE:SKIRT
G1 F2700 E0
G1 F1200 X85.236 Y84.427 E0.03119
G1 X85.976 Y83.851 E0.06237
G1 X86.762 Y83.339 E0.09357
G1 X87.589 Y82.897 E0.12476
G1 X88.451 Y82.527 E0.15596
G1 X89.341 Y82.231 E0.18716
G1 X90.253 Y82.013 E0.21835
G1 X91.18 Y81.872 E0.24953
G1 X92.051 Y81.813 E0.27857
G1 X92.372 Y81.804 E0.28925
G1 X92.68 Y81.8 E0.29949
G1 X141.943 Y81.8 E1.93799
G1 X142.799 Y81.811 E1.96646
G1 X143.735 Y81.865 E1.99764
G1 X144.663 Y81.997 E2.02882
G1 X145.577 Y82.209 E2.06003
G1 X146.469 Y82.498 E2.09121
G1 X147.334 Y82.861 E2.12241
G1 X148.164 Y83.297 E2.1536
G1 X148.955 Y83.802 E2.18481
G1 X149.699 Y84.373 E2.216
G1 X150.392 Y85.005 E2.2472
G1 X151.029 Y85.693 E2.27838
G1 X151.604 Y86.434 E2.30958
G1 X152.115 Y87.22 E2.34076
G1 X152.557 Y88.048 E2.37198
G1 X152.926 Y88.91 E2.40317
G1 X153.221 Y89.8 E2.43435
G1 X153.439 Y90.712 E2.46554
G1 X153.579 Y91.64 E2.49675
G1 X153.637 Y92.501 E2.52546
G1 X153.646 Y92.821 E2.5361
G1 X153.65 Y93.13 E2.54638
G1 X153.649 Y141.6 E4.1585
G1 X153.64 Y142.327 E4.18268
G1 X153.589 Y143.264 E4.21389
G1 X153.457 Y144.192 E4.24507
G1 X153.248 Y145.106 E4.27625
G1 X152.961 Y145.999 E4.30745
G1 X152.599 Y146.865 E4.33867
G1 X152.165 Y147.696 E4.36985
G1 X151.661 Y148.487 E4.40105
G1 X151.092 Y149.232 E4.43223
G1 X150.461 Y149.927 E4.46345
G1 X149.774 Y150.565 E4.49463
G1 X149.035 Y151.142 E4.52581
G1 X148.249 Y151.654 E4.55701
G1 X147.423 Y152.097 E4.58819
G1 X146.561 Y152.469 E4.61941
G1 X145.672 Y152.765 E4.65058
G1 X144.76 Y152.985 E4.68178
G1 X143.833 Y153.126 E4.71297
G1 X142.949 Y153.187 E4.74244
G1 X142.628 Y153.196 E4.75312
G1 X142.32 Y153.2 E4.76337
G1 X92.915 Y153.199 E6.40658
G1 X92.217 Y153.19 E6.4298
G1 X91.281 Y153.138 E6.46098
G1 X90.352 Y153.006 E6.49219
G1 X89.438 Y152.796 E6.52338
G1 X88.545 Y152.509 E6.55458
G1 X87.68 Y152.146 E6.58578
G1 X86.849 Y151.712 E6.61696
G1 X86.058 Y151.208 E6.64816
G1 X85.313 Y150.638 E6.67936
G1 X84.619 Y150.007 E6.71055
G1 X83.982 Y149.32 E6.74171
G1 X83.405 Y148.58 E6.77292
G1 X82.893 Y147.794 E6.80412
G1 X82.45 Y146.967 E6.83533
G1 X82.079 Y146.106 E6.86651
G1 X81.783 Y145.216 E6.89771
G1 X81.564 Y144.304 E6.9289
G1 X81.423 Y143.377 E6.96009
G1 X81.363 Y142.488 E6.98972
G1 X81.354 Y142.155 E7.0008
G1 X81.35 Y141.858 E7.01068
G1 X81.351 Y93.325 E8.6249
G1 X81.36 Y92.66 E8.64702
G1 X81.413 Y91.724 E8.6782
G1 X81.545 Y90.795 E8.70941
G1 X81.756 Y89.881 E8.74061
G1 X82.044 Y88.989 E8.77178
G1 X82.407 Y88.124 E8.80298
G1 X82.842 Y87.293 E8.83418
G1 X83.346 Y86.503 E8.86535
G1 X83.916 Y85.758 E8.89655
G1 X84.548 Y85.064 E8.92777
G0 F6000 X84.939 Y85.239
G1 F1200 X85.624 Y84.623 E8.95841
G1 X86.36 Y84.07 E8.98903
G1 X87.141 Y83.582 E9.01966
G1 X87.961 Y83.164 E9.05027
G1 X88.815 Y82.819 E9.0809
G1 X89.695 Y82.549 E9.11152
G1 X90.595 Y82.357 E9.14213
G1 X91.509 Y82.243 E9.17276
G1 X92.062 Y82.213 E9.19118
G1 X92.383 Y82.204 E9.20186
G1 X92.68 Y82.2 E9.21174
G1 X141.943 Y82.2 E10.85024
G1 X142.793 Y82.211 E10.87851
G1 X143.712 Y82.264 E10.90913
G1 X144.623 Y82.397 E10.93975
G1 X145.519 Y82.608 E10.97036
G1 X146.393 Y82.896 E11.00097
G1 X147.24 Y83.259 E11.03162
G1 X148.051 Y83.694 E11.06223
G1 X148.821 Y84.198 E11.09284
G1 X149.545 Y84.767 E11.12346
G1 X150.217 Y85.397 E11.1541
G1 X150.832 Y86.082 E11.18472
G1 X151.385 Y86.818 E11.21534
G1 X151.872 Y87.599 E11.24595
G1 X152.289 Y88.42 E11.27658
G1 X152.634 Y89.274 E11.30721
G1 X152.903 Y90.154 E11.33782
G1 X153.095 Y91.055 E11.36846
G1 X153.208 Y91.968 E11.39906
G1 X153.237 Y92.512 E11.41718
G1 X153.246 Y92.832 E11.42782
G1 X153.25 Y93.13 E11.43774
G1 X153.249 Y141.595 E13.04969
G1 X153.24 Y142.322 E13.07387
G1 X153.189 Y143.241 E13.10448
G1 X153.058 Y144.153 E13.13513
G1 X152.848 Y145.049 E13.16574
G1 X152.562 Y145.924 E13.19635
G1 X152.201 Y146.771 E13.22698
G1 X151.767 Y147.583 E13.2576
G1 X151.265 Y148.355 E13.28823
G1 X150.697 Y149.08 E13.31886
G1 X150.069 Y149.753 E13.34948
G1 X149.385 Y150.369 E13.38009
G1 X148.65 Y150.923 E13.41071
G1 X147.87 Y151.412 E13.44133
G1 X147.05 Y151.831 E13.47195
G1 X146.197 Y152.177 E13.50257
G1 X145.317 Y152.448 E13.53319
G1 X144.417 Y152.641 E13.56381
G1 X143.503 Y152.756 E13.59445
G1 X142.938 Y152.787 E13.61327
G1 X142.617 Y152.796 E13.62395
G1 X142.32 Y152.8 E13.63383
G1 X92.92 Y152.799 E15.27688
G1 X92.222 Y152.79 E15.3001
G1 X91.303 Y152.738 E15.33071
G1 X90.392 Y152.607 E15.36132
G1 X89.496 Y152.397 E15.39193
G1 X88.621 Y152.11 E15.42256
G1 X87.774 Y151.748 E15.4532
G1 X86.962 Y151.314 E15.48382
G1 X86.191 Y150.812 E15.51442
G1 X85.466 Y150.244 E15.54505
G1 X84.793 Y149.615 E15.57569
G1 X84.178 Y148.931 E15.60628
G1 X83.624 Y148.196 E15.6369
G1 X83.136 Y147.415 E15.66753
G1 X82.717 Y146.595 E15.69815
G1 X82.371 Y145.742 E15.72877
G1 X82.101 Y144.862 E15.75939
G1 X81.908 Y143.961 E15.79003
G1 X81.794 Y143.048 E15.82064
G1 X81.763 Y142.477 E15.83966
G1 X81.754 Y142.144 E15.85074
G1 X81.75 Y141.858 E15.86025
G1 X81.751 Y93.331 E17.47426
G1 X81.76 Y92.666 E17.49638
G1 X81.812 Y91.746 E17.52703
G1 X81.944 Y90.835 E17.55765
G1 X82.155 Y89.939 E17.58826
G1 X82.442 Y89.064 E17.61889
G1 X82.805 Y88.218 E17.64951
G1 X83.239 Y87.406 E17.68013
G1 X83.742 Y86.635 E17.71075
G1 X84.311 Y85.911 E17.74138
G1 X84.939 Y85.239 E17.77197
G0 F6000 X85.331 Y85.417
G1 F1200 X86.012 Y84.824 E17.802
G1 X86.744 Y84.294 E17.83206
G1 X87.519 Y83.831 E17.86209
G1 X88.332 Y83.438 E17.89212
G1 X89.177 Y83.118 E17.92218
G1 X90.046 Y82.875 E17.95219
G1 X90.934 Y82.709 E17.98223
G1 X92.073 Y82.613 E18.02025
G1 X92.394 Y82.604 E18.03093
G1 X92.68 Y82.6 E18.04045
G1 X141.943 Y82.6 E19.67894
G1 X142.787 Y82.611 E19.70701
G1 X143.689 Y82.664 E19.73707
G1 X144.582 Y82.796 E19.76709
G1 X145.46 Y83.007 E19.79712
G1 X146.316 Y83.295 E19.82716
G1 X147.143 Y83.657 E19.85719
G1 X147.935 Y84.092 E19.88724
G1 X148.686 Y84.594 E19.91729
G1 X149.389 Y85.161 E19.94733
G1 X150.039 Y85.788 E19.97736
G1 X150.631 Y86.47 E20.0074
G1 X151.161 Y87.201 E20.03743
G1 X151.623 Y87.977 E20.06747
G1 X152.016 Y88.79 E20.0975
G1 X152.334 Y89.635 E20.12753
G1 X152.577 Y90.505 E20.15758
G1 X152.742 Y91.393 E20.18762
G1 X152.837 Y92.523 E20.22533
G1 X152.846 Y92.843 E20.23598
G1 X152.85 Y93.13 E20.24553
G1 X152.849 Y141.59 E21.85731
G1 X152.84 Y142.317 E21.8815
G1 X152.789 Y143.219 E21.91155
G1 X152.658 Y144.113 E21.9416
G1 X152.449 Y144.991 E21.97162
G1 X152.163 Y145.848 E22.00167
G1 X151.802 Y146.676 E22.03171
G1 X151.37 Y147.468 E22.06171
G1 X150.869 Y148.22 E22.09177
G1 X150.303 Y148.924 E22.12181
G1 X149.678 Y149.575 E22.15183
G1 X148.997 Y150.169 E22.18188
G1 X148.266 Y150.7 E22.21193
G1 X147.492 Y151.164 E22.24195
G1 X146.679 Y151.558 E22.272
G1 X145.835 Y151.878 E22.30202
G1 X144.965 Y152.123 E22.33208
G1 X144.078 Y152.289 E22.3621
G1 X142.927 Y152.387 E22.40052
G1 X142.606 Y152.396 E22.4112
G1 X142.32 Y152.4 E22.42071
G1 X92.925 Y152.399 E24.06359
G1 X92.227 Y152.39 E24.08681
G1 X91.326 Y152.339 E24.11683
G1 X90.432 Y152.207 E24.14688
G1 X89.554 Y151.998 E24.1769
G1 X88.697 Y151.711 E24.20696
G1 X87.87 Y151.35 E24.23698
G1 X87.077 Y150.917 E24.26703
G1 X86.326 Y150.416 E24.29705
G1 X85.622 Y149.85 E24.3271
G1 X84.971 Y149.224 E24.35714
G1 X84.378 Y148.543 E24.38717
G1 X83.848 Y147.812 E24.4172
G1 X83.384 Y147.037 E24.44724
G1 X82.99 Y146.224 E24.47729
G1 X82.67 Y145.38 E24.50731
G1 X82.426 Y144.51 E24.53737
G1 X82.26 Y143.622 E24.56741
G1 X82.163 Y142.467 E24.60596
G1 X82.154 Y142.134 E24.61704
G1 X82.15 Y141.858 E24.62622
G1 X82.151 Y93.336 E26.24007
G1 X82.16 Y92.671 E26.26219
G1 X82.212 Y91.769 E26.29224
G1 X82.344 Y90.876 E26.32227
G1 X82.554 Y89.998 E26.35229
G1 X82.841 Y89.141 E26.38235
G1 X83.203 Y88.314 E26.41238
G1 X83.636 Y87.522 E26.4424
G1 X84.138 Y86.771 E26.47245
G1 X84.705 Y86.067 E26.50251
G1 X85.331 Y85.417 E26.53253
G1 F2700 E21.53253
;MESH:Part Studio 1 - Part 1.stl
G0 F6000 X92.764 Y92.135
G0 X92.764 Y93.214
G0 X121.342 Y93.601
G0 X120.088 Y95.373
G0 X120.826 Y97.011
G0 X122.365 Y97.6
;TYPE:WALL-INNER
G1 F2700 E26.53253
G1 F1200 X122.793 Y97.528 E26.54696
G1 X123.194 Y97.367 E26.56133
G1 X123.551 Y97.122 E26.57573
G1 X123.849 Y96.807 E26.59016
G1 X124.071 Y96.434 E26.60459
G1 X124.207 Y96.023 E26.61899
G1 X124.252 Y95.592 E26.63341
G1 X124.204 Y95.163 E26.64776
G1 X124.066 Y94.753 E26.66215
G1 X123.84 Y94.382 E26.6766
G1 X123.54 Y94.069 E26.69102
G1 X123.182 Y93.828 E26.70537
G1 X123.096 Y93.794 E26.70845
G1 X122.779 Y93.669 E26.71978
G1 X122.353 Y93.6 E26.73414
G1 X121.92 Y93.624 E26.74856
G1 X121.502 Y93.742 E26.76301
G1 X121.403 Y93.795 E26.76674
G1 X121.12 Y93.947 E26.77743
G1 X120.793 Y94.227 E26.79174
G1 X120.531 Y94.572 E26.80615
G1 X120.35 Y94.968 E26.82063
G1 X120.259 Y95.391 E26.83503
G1 X120.26 Y95.823 E26.84939
G1 X120.354 Y96.245 E26.86377
G1 X120.538 Y96.638 E26.87821
G1 X120.801 Y96.983 E26.89264
G1 X121.132 Y97.261 E26.90701
G1 X121.516 Y97.462 E26.92143
G1 X121.933 Y97.577 E26.93582
G1 X122.365 Y97.6 E26.9502
G0 F6000 X122.342 Y97.198
;TYPE:WALL-OUTER
G1 F1200 X122.684 Y97.141 E26.96174
G1 X123.004 Y97.012 E26.97321
G1 X123.29 Y96.816 E26.98474
G1 X123.528 Y96.564 E26.99627
G1 X123.705 Y96.267 E27.00777
G1 X123.814 Y95.938 E27.0193
G1 X123.85 Y95.594 E27.0308
G1 X123.811 Y95.25 E27.04232
G1 X123.701 Y94.923 E27.05379
G1 X123.521 Y94.627 E27.06532
G1 X123.281 Y94.377 E27.07684
G1 X122.995 Y94.184 E27.08832
G1 X122.673 Y94.057 E27.09983
G1 X122.332 Y94.002 E27.11132
G1 X121.986 Y94.021 E27.12284
G1 X121.653 Y94.115 E27.13435
G1 X121.347 Y94.279 E27.1459
G1 X121.086 Y94.503 E27.15734
G1 X120.876 Y94.779 E27.16887
G1 X120.732 Y95.095 E27.18042
G1 X120.659 Y95.433 E27.19193
G1 X120.66 Y95.778 E27.2034
G1 X120.735 Y96.115 E27.21488
G1 X120.882 Y96.43 E27.22644
G1 X121.092 Y96.705 E27.23795
G1 X121.356 Y96.927 E27.24943
G1 X121.664 Y97.088 E27.26098
G1 X121.997 Y97.18 E27.27248
G1 X122.342 Y97.198 E27.28397
G0 F6000 X122.366 Y97.637
G0 X124.227 Y96.506
G0 X123.976 Y94.277
G0 X123.163 Y93.604
G0 X135.842 Y93.601
G0 X134.588 Y95.373
G0 X135.355 Y97.017
G0 X136.433 Y97.577
;TYPE:WALL-INNER
G1 F1200 X136.865 Y97.6 E27.29835
G1 X137.293 Y97.528 E27.31279
G1 X137.694 Y97.367 E27.32716
G1 X138.051 Y97.122 E27.34156
G1 X138.349 Y96.807 E27.35599
G1 X138.571 Y96.434 E27.37042
G1 X138.707 Y96.023 E27.38482
G1 X138.752 Y95.592 E27.39923
G1 X138.704 Y95.163 E27.41359
G1 X138.566 Y94.753 E27.42798
G1 X138.34 Y94.382 E27.44243
G1 X138.04 Y94.069 E27.45685
G1 X137.682 Y93.828 E27.4712
G1 X137.596 Y93.794 E27.47428
G1 X137.279 Y93.669 E27.48561
G1 X136.853 Y93.6 E27.49997
G1 X136.42 Y93.624 E27.51439
G1 X136.002 Y93.742 E27.52884
G1 X135.903 Y93.795 E27.53257
G1 X135.62 Y93.947 E27.54325
G1 X135.293 Y94.227 E27.55757
G1 X135.031 Y94.572 E27.57198
G1 X134.85 Y94.968 E27.58646
G1 X134.759 Y95.391 E27.60085
G1 X134.76 Y95.823 E27.61522
G1 X134.854 Y96.245 E27.6296
G1 X135.038 Y96.638 E27.64404
G1 X135.301 Y96.983 E27.65846
G1 X135.632 Y97.261 E27.67284
G1 X136.016 Y97.462 E27.68726
G1 X136.433 Y97.577 E27.70164
G0 F6000 X136.497 Y97.18
;TYPE:WALL-OUTER
G1 F1200 X136.842 Y97.198 E27.71313
G1 X137.184 Y97.141 E27.72467
G1 X137.504 Y97.012 E27.73614
G1 X137.79 Y96.816 E27.74767
G1 X138.028 Y96.564 E27.7592
G1 X138.205 Y96.267 E27.7707
G1 X138.314 Y95.938 E27.78223
G1 X138.35 Y95.594 E27.79373
G1 X138.311 Y95.25 E27.80525
G1 X138.201 Y94.923 E27.81672
G1 X138.021 Y94.627 E27.82825
G1 X137.781 Y94.377 E27.83977
G1 X137.495 Y94.184 E27.85125
G1 X137.173 Y94.057 E27.86276
G1 X136.832 Y94.002 E27.87425
G1 X136.486 Y94.021 E27.88577
G1 X136.153 Y94.115 E27.89728
G1 X135.847 Y94.279 E27.90883
G1 X135.586 Y94.503 E27.92027
G1 X135.376 Y94.779 E27.9318
G1 X135.232 Y95.095 E27.94335
G1 X135.159 Y95.433 E27.95486
G1 X135.16 Y95.778 E27.96633
G1 X135.235 Y96.115 E27.97781
G1 X135.382 Y96.43 E27.98937
G1 X135.592 Y96.705 E28.00088
G1 X135.856 Y96.927 E28.01236
G1 X136.164 Y97.088 E28.02391
G1 X136.497 Y97.18 E28.03541
G0 F6000 X136.427 Y97.614
G1 F2700 E23.03541
G0 F6000 X138.487 Y96.91
G0 X138.722 Y94.68
G0 X137.663 Y93.604
G0 X141.868 Y93.582
G0 X141.868 Y141.418
G0 X137.663 Y141.397
G0 X138.923 Y139.391
G0 X137.762 Y137.476
G0 X136.431 Y137.587
G0 X136.064 Y137.691
G0 X135.711 Y137.881
G0 X135.411 Y138.138
G0 X135.169 Y138.456
G0 X135.004 Y138.82
G0 X134.92 Y139.208
G0 X134.921 Y139.604
G0 X135.008 Y139.992
G0 X135.176 Y140.354
G0 X135.418 Y140.671
G0 X136.433 Y141.377
;TYPE:WALL-INNER
G1 F2700 E28.03541
G1 F1200 X136.865 Y141.4 E28.04979
G1 X137.293 Y141.328 E28.06423
G1 X137.597 Y141.206 E28.07512
G1 X137.694 Y141.167 E28.0786
G1 X138.051 Y140.922 E28.093
G1 X138.349 Y140.607 E28.10742
G1 X138.571 Y140.234 E28.12186
G1 X138.707 Y139.823 E28.13626
G1 X138.752 Y139.392 E28.15067
G1 X138.704 Y138.963 E28.16503
G1 X138.566 Y138.553 E28.17942
G1 X138.34 Y138.182 E28.19387
G1 X138.04 Y137.869 E28.20829
G1 X137.682 Y137.628 E28.22264
G1 X137.279 Y137.469 E28.23705
G1 X136.853 Y137.4 E28.25141
G1 X136.42 Y137.424 E28.26583
G1 X136.002 Y137.542 E28.28028
G1 X135.62 Y137.747 E28.29469
G1 X135.293 Y138.027 E28.30901
G1 X135.031 Y138.372 E28.32342
G1 X134.85 Y138.768 E28.3379
G1 X134.759 Y139.191 E28.35229
G1 X134.76 Y139.623 E28.36666
G1 X134.854 Y140.045 E28.38104
G1 X135.038 Y140.438 E28.39548
G1 X135.301 Y140.783 E28.4099
G1 X135.632 Y141.061 E28.42428
G1 X135.907 Y141.205 E28.43461
G1 X136.016 Y141.262 E28.4387
G1 X136.433 Y141.377 E28.45308
G0 F6000 X136.497 Y140.98
;TYPE:WALL-OUTER
G1 F1200 X136.842 Y140.998 E28.46457
G1 X137.184 Y140.941 E28.47611
G1 X137.504 Y140.812 E28.48758
G1 X137.79 Y140.616 E28.49911
G1 X138.028 Y140.364 E28.51064
G1 X138.205 Y140.067 E28.52214
G1 X138.314 Y139.738 E28.53367
G1 X138.35 Y139.394 E28.54517
G1 X138.311 Y139.05 E28.55669
G1 X138.201 Y138.723 E28.56816
G1 X138.021 Y138.427 E28.57968
G1 X137.781 Y138.177 E28.59121
G1 X137.495 Y137.984 E28.60269
G1 X137.173 Y137.857 E28.6142
G1 X136.832 Y137.802 E28.62569
G1 X136.486 Y137.821 E28.63721
G1 X136.153 Y137.915 E28.64872
G1 X135.847 Y138.079 E28.66027
G1 X135.586 Y138.303 E28.67171
G1 X135.376 Y138.579 E28.68324
G1 X135.232 Y138.895 E28.69479
G1 X135.159 Y139.233 E28.70629
G1 X135.16 Y139.578 E28.71777
G1 X135.235 Y139.915 E28.72925
G1 X135.382 Y140.23 E28.74081
G1 X135.592 Y140.505 E28.75232
G1 X135.856 Y140.727 E28.7638
G1 X136.164 Y140.888 E28.77535
G1 X136.497 Y140.98 E28.78684
G0 F6000 X136.427 Y141.414
G0 X109.565 Y141.4
;TYPE:WALL-INNER
G1 F1200 X109.993 Y141.328 E28.80128
G1 X110.297 Y141.206 E28.81218
G1 X110.394 Y141.167 E28.81565
G1 X110.751 Y140.922 E28.83005
G1 X111.049 Y140.607 E28.84448
G1 X111.271 Y140.234 E28.85891
G1 X111.407 Y139.823 E28.87331
G1 X111.452 Y139.392 E28.88772
G1 X111.404 Y138.963 E28.90208
G1 X111.266 Y138.553 E28.91647
G1 X111.04 Y138.182 E28.93092
G1 X110.74 Y137.869 E28.94534
G1 X110.382 Y137.628 E28.95969
G1 X109.979 Y137.469 E28.9741
G1 X109.553 Y137.4 E28.98846
G1 X109.12 Y137.424 E29.00288
G1 X108.702 Y137.542 E29.01733
G1 X108.32 Y137.747 E29.03175
G1 X107.993 Y138.027 E29.04606
G1 X107.731 Y138.372 E29.06047
G1 X107.55 Y138.768 E29.07495
G1 X107.459 Y139.191 E29.08934
G1 X107.46 Y139.623 E29.10371
G1 X107.554 Y140.045 E29.11809
G1 X107.738 Y140.438 E29.13253
G1 X108.001 Y140.783 E29.14695
G1 X108.332 Y141.061 E29.16133
G1 X108.607 Y141.205 E29.17166
G1 X108.716 Y141.262 E29.17575
G1 X109.133 Y141.377 E29.19013
G1 X109.565 Y141.4 E29.20452
