;FLAVOR:Marlin
;TIME:17698
;Filament used: 14.008m
;Layer height: 0.2
;MINX:33.571
;MINY:31.61
;MINZ:0.2
;MAXX:205.55
;MAXY:203.39
;MAXZ:3
;Generated with Cura_SteamEngine 4.11.0
M140 S50
M105
M190 S50
M104 S200
M105
M109 S200
M82 ;absolute extrusion mode
; Ender 3 Custom Start G-code
G92 E0 ; Reset Extruder
G28 ; Home all axes
G1 Z2.0 F3000 ; Move Z Axis up little to prevent scratching of Heat Bed
G1 X0.1 Y20 Z0.3 F5000.0 ; Move to start position
G1 X0.1 Y200.0 Z0.3 F1500.0 E15 ; Draw the first line
G1 X0.4 Y200.0 Z0.3 F5000.0 ; Move to side a little
G1 X0.4 Y20 Z0.3 F1500.0 E30 ; Draw the second line
G92 E0 ; Reset Extruder
G1 Z2.0 F3000 ; Move Z Axis up little to prevent scratching of Heat Bed
G1 X5 Y20 Z0.3 F5000.0 ; Move over to prevent blob squish
G92 E0
G92 E0
G1 F2700 E-5
;LAYER_COUNT:15
;LAYER:0
M107
G0 F6000 X57.469 Y58.022 Z0.2
;TYPE:SKIRT
G1 F2700 E0
G1 F1200 X58.009 Y57.499 E0.025
G1 X63.027 Y52.747 E0.25486
G1 X63.576 Y52.242 E0.27967
G1 X64.011 Y51.862 E0.29889
G1 X64.121 Y51.771 E0.30363
G1 X64.384 Y51.561 E0.31483
G1 X64.772 Y51.26 E0.33116
G1 X70.355 Y47.018 E0.56437
G1 X70.973 Y46.562 E0.58992
G1 X71.442 Y46.234 E0.60895
G1 X71.784 Y46.015 E0.62246
G1 X72.333 Y45.677 E0.6439
G1 X78.262 Y42.112 E0.874
G1 X78.916 Y41.732 E0.89916
G1 X79.432 Y41.45 E0.91872
G1 X79.771 Y41.281 E0.93132
G1 X80.374 Y40.993 E0.95354
G1 X86.56 Y38.131 E1.18024
G1 X87.332 Y37.787 E1.20835
G1 X87.867 Y37.565 E1.22762
G1 X88.003 Y37.513 E1.23246
G1 X88.295 Y37.407 E1.24279
G1 X88.831 Y37.22 E1.26168
G1 X95.51 Y34.971 E1.49608
G1 X96.167 Y34.761 E1.51902
G1 X96.992 Y34.533 E1.54749
G1 X97.766 Y34.351 E1.57393
G1 X104.334 Y32.905 E1.79762
G1 X105.07 Y32.753 E1.82261
G1 X105.418 Y32.687 E1.83439
G1 X106.398 Y32.518 E1.86747
G1 X106.664 Y32.475 E1.87643
G1 X107.411 Y32.365 E1.90154
G1 X107.63 Y32.335 E1.9089
G1 X109.009 Y32.161 E1.95512
G1 X110.337 Y32.009 E1.99958
G1 X110.558 Y31.986 E2.00697
G1 X112.494 Y31.804 E2.07165
G1 X114.022 Y31.69 E2.12261
G1 X114.839 Y31.639 E2.14984
G1 X115.159 Y31.624 E2.16049
G1 X115.413 Y31.616 E2.16894
G1 X115.757 Y31.611 E2.18039
G1 X122.912 Y31.61 E2.41836
G1 X123.77 Y31.621 E2.4469
G1 X124.349 Y31.645 E2.46618
G1 X124.816 Y31.681 E2.48176
G1 X125.416 Y31.74 E2.50181
G1 X132.336 Y32.494 E2.73333
G1 X133.039 Y32.581 E2.75689
G1 X133.595 Y32.665 E2.77559
G1 X133.737 Y32.69 E2.78039
G1 X134.077 Y32.755 E2.7919
G1 X134.63 Y32.871 E2.8107
G1 X141.259 Y34.33 E3.03645
G1 X142.164 Y34.543 E3.06738
G1 X142.7 Y34.684 E3.08581
G1 X143.123 Y34.812 E3.10051
G1 X143.689 Y34.995 E3.12029
G1 X150.33 Y37.235 E3.3534
G1 X150.975 Y37.462 E3.37614
G1 X151.577 Y37.694 E3.3976
G1 X151.924 Y37.843 E3.41016
G1 X152.468 Y38.088 E3.43001
G1 X158.681 Y40.962 E3.65769
G1 X159.456 Y41.334 E3.68628
G1 X159.977 Y41.602 E3.70577
G1 X160.11 Y41.675 E3.71081
G1 X160.367 Y41.821 E3.72065
G1 X160.821 Y42.087 E3.73815
G1 X166.854 Y45.719 E3.97236
G1 X167.448 Y46.087 E3.9956
G1 X168.028 Y46.472 E4.01876
G1 X168.29 Y46.661 E4.0295
G1 X168.75 Y47.004 E4.04859
G1 X174.344 Y51.257 E4.28231
G1 X174.901 Y51.694 E4.30586
G1 X175.334 Y52.052 E4.32454
G1 X175.661 Y52.343 E4.3391
G1 X176.104 Y52.753 E4.35918
G1 X181.167 Y57.552 E4.5912
G1 X181.694 Y58.066 E4.61569
G1 X182.153 Y58.542 E4.63768
G1 X182.363 Y58.776 E4.64814
G1 X182.751 Y59.222 E4.6678
G1 X187.283 Y64.558 E4.90065
G1 X187.732 Y65.1 E4.92406
G1 X188.273 Y65.809 E4.95372
G1 X188.687 Y66.403 E4.9778
G1 X192.612 Y72.192 E5.21043
G1 X193.018 Y72.81 E5.23502
G1 X193.375 Y73.392 E5.25773
G1 X193.533 Y73.675 E5.26851
G1 X193.824 Y74.211 E5.2888
G1 X197.086 Y80.365 E5.52045
G1 X197.407 Y80.991 E5.54385
G1 X197.671 Y81.542 E5.56417
G1 X197.841 Y81.935 E5.57842
G1 X198.071 Y82.497 E5.59861
G1 X200.656 Y88.988 E5.831
G1 X200.889 Y89.594 E5.85259
G1 X201.106 Y90.214 E5.87444
G1 X201.229 Y90.612 E5.88829
G1 X201.392 Y91.179 E5.90791
G1 X203.217 Y97.753 E6.13484
G1 X203.439 Y98.599 E6.16393
G1 X203.566 Y99.138 E6.18234
G1 X203.65 Y99.57 E6.19698
G1 X203.765 Y100.226 E6.21913
G1 X204.879 Y107.027 E6.44835
G1 X204.994 Y107.799 E6.47431
G1 X205.069 Y108.424 E6.49525
G1 X205.098 Y108.781 E6.50716
G1 X205.135 Y109.349 E6.52609
G1 X205.507 Y116.195 E6.75413
G1 X205.542 Y117.065 E6.78309
G1 X205.55 Y117.611 E6.80125
G1 X205.54 Y118.076 E6.81672
G1 X205.512 Y118.701 E6.83753
G1 X205.134 Y125.648 E7.06893
G1 X205.085 Y126.362 E7.09273
G1 X205.026 Y126.973 E7.11315
G1 X204.975 Y127.351 E7.12583
G1 X204.881 Y127.972 E7.14672
G1 X203.76 Y134.801 E7.3769
G1 X203.626 Y135.558 E7.40247
G1 X203.438 Y136.418 E7.43174
G1 X203.261 Y137.09 E7.45486
G1 X201.37 Y143.899 E7.6899
G1 X201.189 Y144.517 E7.71132
G1 X200.985 Y145.143 E7.73321
G1 X200.854 Y145.499 E7.74583
G1 X200.632 Y146.078 E7.76646
G1 X198.107 Y152.415 E7.99334
G1 X197.791 Y153.179 E8.02084
G1 X197.535 Y153.751 E8.04168
G1 X197.354 Y154.117 E8.05526
G1 X197.06 Y154.687 E8.07659
G1 X193.791 Y160.85 E8.30863
G1 X193.465 Y161.444 E8.33116
G1 X193.158 Y161.97 E8.35142
G1 X193.072 Y162.108 E8.35683
G1 X192.919 Y162.346 E8.36624
G1 X192.626 Y162.788 E8.38388
G1 X188.772 Y168.474 E8.61234
G1 X188.26 Y169.205 E8.64203
G1 X187.907 Y169.68 E8.66171
G1 X187.641 Y170.013 E8.67588
G1 X187.29 Y170.435 E8.69414
G1 X182.858 Y175.652 E8.92182
G1 X182.293 Y176.298 E8.95036
G1 X182.068 Y176.548 E8.96155
G1 X181.972 Y176.651 E8.96623
G1 X181.567 Y177.063 E8.98545
G1 X181.139 Y177.476 E9.00523
G1 X176.097 Y182.251 E9.2362
G1 X175.568 Y182.739 E9.26014
G1 X175.065 Y183.175 E9.28228
G1 X174.78 Y183.405 E9.29446
G1 X174.317 Y183.765 E9.31396
G1 X168.767 Y187.982 E9.5458
G1 X168.149 Y188.438 E9.57134
G1 X167.425 Y188.929 E9.60044
G1 X166.815 Y189.307 E9.62431
G1 X160.795 Y192.927 E9.85795
G1 X160.202 Y193.271 E9.88075
G1 X159.637 Y193.577 E9.90212
G1 X159.33 Y193.729 E9.91351
G1 X158.792 Y193.986 E9.93334
G1 X152.561 Y196.869 E10.16169
G1 X151.789 Y197.213 E10.18981
G1 X151.254 Y197.435 E10.20907
G1 X151.118 Y197.487 E10.21391
G1 X150.826 Y197.593 E10.22425
G1 X150.29 Y197.78 E10.24313
G1 X143.611 Y200.029 E10.47753
G1 X142.954 Y200.239 E10.50047
G1 X142.129 Y200.467 E10.52894
G1 X141.355 Y200.649 E10.55538
G1 X134.638 Y202.127 E10.78413
G1 X133.894 Y202.28 E10.8094
G1 X133.217 Y202.397 E10.83225
G1 X132.896 Y202.44 E10.84302
G1 X132.309 Y202.509 E10.86268
G1 X125.35 Y203.266 E11.0955
G1 X124.659 Y203.331 E11.11859
G1 X124.03 Y203.372 E11.13955
G1 X123.631 Y203.383 E11.15283
G1 X123.016 Y203.39 E11.17328
G1 X116.049 Y203.389 E11.40501
G1 X115.343 Y203.379 E11.42849
G1 X115.047 Y203.371 E11.43834
G1 X114.804 Y203.361 E11.44643
G1 X114.454 Y203.341 E11.45809
G1 X112.499 Y203.198 E11.52329
G1 X111.292 Y203.092 E11.56358
G1 X110.951 Y203.057 E11.57499
G1 X108.039 Y202.707 E11.67254
G1 X106.431 Y202.486 E11.72652
G1 X106.057 Y202.427 E11.73911
G1 X105.727 Y202.37 E11.75025
G1 X105.424 Y202.314 E11.7605
G1 X104.383 Y202.104 E11.79582
G1 X97.862 Y200.671 E12.01789
G1 X97.681 Y200.63 E12.02406
G1 X96.949 Y200.456 E12.04908
G1 X96.389 Y200.307 E12.06836
G1 X95.998 Y200.188 E12.08195
G1 X95.432 Y200.005 E12.10174
G1 X88.791 Y197.765 E12.33484
G1 X88.146 Y197.538 E12.35759
G1 X87.544 Y197.306 E12.37904
G1 X87.197 Y197.157 E12.3916
G1 X86.653 Y196.912 E12.41145
G1 X80.298 Y193.971 E12.64435
G1 X79.675 Y193.672 E12.66734
G1 X79.058 Y193.351 E12.69047
G1 X78.764 Y193.184 E12.70172
G1 X78.26 Y192.889 E12.72114
G1 X72.287 Y189.294 E12.95301
G1 X71.684 Y188.92 E12.97661
G1 X71.132 Y188.554 E12.99864
G1 X70.819 Y188.33 E13.01144
G1 X70.362 Y187.99 E13.03039
G1 X64.776 Y183.742 E13.2638
G1 X64.218 Y183.304 E13.28739
G1 X63.751 Y182.915 E13.30761
G1 X63.463 Y182.657 E13.32047
G1 X62.994 Y182.223 E13.34172
G1 X58.07 Y177.56 E13.56728
G1 X57.434 Y176.94 E13.59682
G1 X57.023 Y176.517 E13.61643
G1 X56.744 Y176.207 E13.6303
G1 X56.333 Y175.734 E13.65115
G1 X51.823 Y170.422 E13.88291
G1 X51.357 Y169.856 E13.9073
G1 X51.01 Y169.412 E13.92604
G1 X50.753 Y169.056 E13.94064
G1 X50.424 Y168.581 E13.95986
G1 X46.515 Y162.816 E14.19153
G1 X46.12 Y162.216 E14.21542
G1 X45.802 Y161.702 E14.23552
G1 X45.609 Y161.363 E14.2485
G1 X45.29 Y160.777 E14.27069
G1 X42.023 Y154.612 E14.50275
G1 X41.713 Y154.007 E14.52536
G1 X41.423 Y153.396 E14.54786
G1 X41.279 Y153.059 E14.56004
G1 X41.048 Y152.496 E14.58029
G1 X38.467 Y146.015 E14.81231
G1 X38.233 Y145.407 E14.83398
G1 X37.984 Y144.685 E14.85938
G1 X37.899 Y144.407 E14.86905
G1 X37.731 Y143.826 E14.88916
G1 X35.865 Y137.102 E15.12126
G1 X35.68 Y136.393 E15.14563
G1 X35.568 Y135.921 E15.16176
G1 X35.541 Y135.795 E15.16605
G1 X35.465 Y135.403 E15.17933
G1 X35.368 Y134.85 E15.198
G1 X34.242 Y127.972 E15.42981
G1 X34.127 Y127.2 E15.45577
G1 X34.062 Y126.674 E15.4734
G1 X34.024 Y126.232 E15.48815
G1 X33.984 Y125.617 E15.50865
G1 X33.607 Y118.615 E15.74188
G1 X33.58 Y117.938 E15.76441
G1 X33.571 Y117.399 E15.78234
G1 X33.572 Y117.29 E15.78597
G1 X33.582 Y116.917 E15.79838
G1 X33.608 Y116.333 E15.81782
G1 X33.988 Y109.33 E16.05108
G1 X34.036 Y108.633 E16.07432
G1 X34.095 Y108.025 E16.09464
G1 X34.152 Y107.605 E16.10874
G1 X34.239 Y107.038 E16.12782
G1 X35.361 Y100.199 E16.35832
G1 X35.495 Y99.442 E16.38389
G1 X35.692 Y98.55 E16.41427
G1 X35.878 Y97.848 E16.43843
G1 X37.741 Y91.143 E16.66989
G1 X37.944 Y90.452 E16.69384
G1 X38.144 Y89.84 E16.71526
G1 X38.277 Y89.476 E16.72814
G1 X38.473 Y88.966 E16.74632
G1 X41.015 Y82.586 E16.97474
G1 X41.354 Y81.77 E17.00413
G1 X41.617 Y81.186 E17.02543
G1 X41.779 Y80.86 E17.03754
G1 X42.03 Y80.374 E17.05573
G1 X45.327 Y74.155 E17.28985
G1 X45.635 Y73.592 E17.31119
G1 X45.964 Y73.03 E17.33285
G1 X46.197 Y72.664 E17.34728
G1 X46.493 Y72.215 E17.36517
G1 X50.357 Y66.516 E17.59418
G1 X50.864 Y65.792 E17.62358
G1 X51.204 Y65.333 E17.64258
G1 X51.475 Y64.994 E17.65701
G1 X51.848 Y64.546 E17.6764
G1 X56.356 Y59.24 E17.90797
G1 X56.858 Y58.666 E17.93333
G1 X57.469 Y58.022 E17.96286
G0 F6000 X57.748 Y58.309
G1 F1200 X58.284 Y57.789 E17.9877
G1 X63.185 Y53.147 E18.21222
G1 X63.847 Y52.537 E18.24216
G1 X64.266 Y52.171 E18.26066
G1 X64.376 Y52.08 E18.26541
G1 X64.629 Y51.877 E18.2762
G1 X65.014 Y51.578 E18.29241
G1 X70.471 Y47.43 E18.5204
G1 X71.21 Y46.884 E18.55096
G1 X71.663 Y46.568 E18.56933
G1 X71.994 Y46.355 E18.58242
G1 X72.539 Y46.02 E18.60369
G1 X78.463 Y42.458 E18.8336
G1 X79.117 Y42.078 E18.85876
G1 X79.614 Y41.806 E18.8776
G1 X79.944 Y41.641 E18.88988
G1 X80.542 Y41.356 E18.91191
G1 X86.877 Y38.426 E19.14406
G1 X87.494 Y38.152 E19.16651
G1 X88.01 Y37.939 E19.18508
G1 X88.427 Y37.784 E19.19987
G1 X88.959 Y37.599 E19.21861
G1 X95.632 Y35.352 E19.4528
G1 X96.289 Y35.142 E19.47574
G1 X97.084 Y34.922 E19.50317
G1 X97.852 Y34.742 E19.52941
G1 X104.562 Y33.266 E19.75792
G1 X105.15 Y33.145 E19.77789
G1 X105.486 Y33.081 E19.78926
G1 X106.466 Y32.912 E19.82234
G1 X106.723 Y32.871 E19.831
G1 X107.47 Y32.761 E19.85611
G1 X107.681 Y32.732 E19.86319
G1 X109.055 Y32.559 E19.90925
G1 X110.383 Y32.407 E19.95371
G1 X110.596 Y32.385 E19.96083
G1 X112.532 Y32.203 E20.02551
G1 X112.746 Y32.185 E20.03265
G1 X114.187 Y32.079 E20.08071
G1 X114.863 Y32.038 E20.10323
G1 X115.171 Y32.024 E20.11349
G1 X115.425 Y32.016 E20.12194
G1 X115.758 Y32.011 E20.13302
G1 X122.913 Y32.01 E20.37099
G1 X123.764 Y32.021 E20.3993
G1 X124.322 Y32.044 E20.41788
G1 X124.777 Y32.079 E20.43305
G1 X125.373 Y32.138 E20.45297
G1 X132.287 Y32.891 E20.68429
G1 X132.99 Y32.978 E20.70785
G1 X133.526 Y33.059 E20.72588
G1 X133.668 Y33.084 E20.73068
G1 X133.996 Y33.147 E20.74179
G1 X134.544 Y33.262 E20.76041
G1 X141.337 Y34.758 E20.99176
G1 X142.072 Y34.932 E21.01688
G1 X142.588 Y35.068 E21.03463
G1 X143 Y35.192 E21.04894
G1 X143.561 Y35.374 E21.06856
G1 X150.197 Y37.612 E21.30149
G1 X150.842 Y37.839 E21.32423
G1 X151.422 Y38.063 E21.34491
G1 X151.76 Y38.208 E21.35714
G1 X152.3 Y38.451 E21.37684
G1 X158.661 Y41.395 E21.60997
G1 X159.282 Y41.694 E21.63289
G1 X159.784 Y41.953 E21.65168
G1 X160.165 Y42.166 E21.6662
G1 X160.615 Y42.43 E21.68355
G1 X166.643 Y46.059 E21.91757
G1 X167.237 Y46.427 E21.94081
G1 X167.796 Y46.798 E21.96312
G1 X168.052 Y46.983 E21.97363
G1 X168.508 Y47.322 E21.99253
G1 X174.097 Y51.571 E22.22604
G1 X174.654 Y52.008 E22.24959
G1 X175.071 Y52.353 E22.26759
G1 X175.39 Y52.637 E22.28179
G1 X175.828 Y53.043 E22.30166
G1 X180.888 Y57.839 E22.53354
G1 X181.415 Y58.353 E22.55802
G1 X181.857 Y58.811 E22.57919
G1 X182.062 Y59.039 E22.58939
G1 X182.446 Y59.481 E22.60886
G1 X186.975 Y64.813 E22.84155
G1 X187.424 Y65.355 E22.86496
G1 X187.945 Y66.038 E22.89353
G1 X188.356 Y66.628 E22.91744
G1 X192.277 Y72.412 E23.14986
G1 X192.683 Y73.03 E23.17445
G1 X193.027 Y73.591 E23.19634
G1 X193.182 Y73.866 E23.20684
G1 X193.471 Y74.399 E23.227
G1 X196.73 Y80.547 E23.45844
G1 X197.051 Y81.173 E23.48184
G1 X197.305 Y81.705 E23.50145
G1 X197.471 Y82.088 E23.51533
G1 X197.699 Y82.645 E23.53535
G1 X200.283 Y89.132 E23.76759
G1 X200.516 Y89.738 E23.78919
G1 X200.725 Y90.335 E23.81023
G1 X200.845 Y90.723 E23.82373
G1 X201.007 Y91.286 E23.84322
G1 X202.832 Y97.86 E24.07014
G1 X203.052 Y98.7 E24.09902
G1 X203.174 Y99.219 E24.11675
G1 X203.256 Y99.639 E24.13099
G1 X203.37 Y100.291 E24.153
G1 X204.483 Y107.086 E24.38202
G1 X204.598 Y107.858 E24.40798
G1 X204.67 Y108.46 E24.42814
G1 X204.699 Y108.808 E24.43976
G1 X204.735 Y109.371 E24.45852
G1 X205.115 Y116.373 E24.69175
G1 X205.143 Y117.081 E24.71532
G1 X205.15 Y117.607 E24.73281
G1 X205.14 Y118.059 E24.74785
G1 X205.112 Y118.68 E24.76853
G1 X204.735 Y125.621 E24.99973
G1 X204.686 Y126.335 E25.02353
G1 X204.629 Y126.924 E25.04321
G1 X204.58 Y127.292 E25.05556
G1 X204.486 Y127.907 E25.07625
G1 X203.366 Y134.732 E25.30629
G1 X203.232 Y135.489 E25.33186
G1 X203.051 Y136.317 E25.36005
G1 X202.876 Y136.983 E25.38295
G1 X200.986 Y143.786 E25.61779
G1 X200.805 Y144.404 E25.63921
G1 X200.608 Y145.008 E25.66034
G1 X200.481 Y145.356 E25.67266
G1 X200.26 Y145.93 E25.69312
G1 X197.682 Y152.398 E25.9247
G1 X197.422 Y153.026 E25.94731
G1 X197.175 Y153.577 E25.96739
G1 X196.999 Y153.934 E25.98063
G1 X196.707 Y154.499 E26.00178
G1 X193.441 Y160.658 E26.23365
G1 X193.115 Y161.252 E26.25619
G1 X192.818 Y161.758 E26.2757
G1 X192.585 Y162.126 E26.29019
G1 X192.295 Y162.563 E26.30763
G1 X188.338 Y168.399 E26.54215
G1 X187.933 Y168.975 E26.56557
G1 X187.592 Y169.433 E26.58456
G1 X187.333 Y169.758 E26.59838
G1 X186.985 Y170.176 E26.61647
G1 X182.447 Y175.517 E26.84958
G1 X181.993 Y176.035 E26.87249
G1 X181.679 Y176.378 E26.88796
G1 X181.289 Y176.776 E26.90649
G1 X180.864 Y177.185 E26.92611
G1 X175.825 Y181.957 E27.15693
G1 X175.296 Y182.445 E27.18087
G1 X174.812 Y182.865 E27.20218
G1 X174.534 Y183.09 E27.21408
G1 X174.075 Y183.447 E27.23342
G1 X168.651 Y187.57 E27.46003
G1 X167.912 Y188.116 E27.49059
G1 X167.214 Y188.59 E27.51865
G1 X166.609 Y188.964 E27.5423
G1 X160.594 Y192.581 E27.77575
G1 X160.001 Y192.925 E27.79855
G1 X159.457 Y193.22 E27.81913
G1 X159.157 Y193.369 E27.83027
G1 X158.624 Y193.623 E27.84991
G1 X152.244 Y196.574 E28.08371
G1 X151.627 Y196.848 E28.10617
G1 X151.111 Y197.061 E28.12473
G1 X150.694 Y197.216 E28.13953
G1 X150.162 Y197.401 E28.15826
G1 X143.489 Y199.648 E28.39245
G1 X142.832 Y199.858 E28.41539
G1 X142.037 Y200.078 E28.44283
G1 X141.269 Y200.258 E28.46907
G1 X134.557 Y201.735 E28.69765
G1 X133.813 Y201.888 E28.72291
G1 X133.161 Y202.001 E28.74492
G1 X132.848 Y202.043 E28.75543
G1 X132.266 Y202.112 E28.77492
G1 X125.467 Y202.852 E29.00239
G1 X124.622 Y202.932 E29.03062
G1 X124.016 Y202.972 E29.05082
G1 X123.626 Y202.983 E29.0638
G1 X123.016 Y202.99 E29.08409
G1 X116.055 Y202.989 E29.31561
G1 X115.349 Y202.979 E29.33909
G1 X115.063 Y202.971 E29.34861
G1 X114.82 Y202.961 E29.3567
G1 X114.483 Y202.942 E29.36793
G1 X112.369 Y202.786 E29.43843
G1 X111.327 Y202.694 E29.47322
G1 X110.999 Y202.66 E29.48419
G1 X108.277 Y202.334 E29.57537
G1 X106.486 Y202.089 E29.63549
G1 X106.125 Y202.033 E29.64764
G1 X105.795 Y201.976 E29.65878
G1 X105.503 Y201.922 E29.66866
G1 X104.281 Y201.674 E29.71013
G1 X97.948 Y200.281 E29.9258
G1 X97.042 Y200.067 E29.95677
G1 X96.502 Y199.923 E29.97535
G1 X96.121 Y199.808 E29.98859
G1 X95.56 Y199.626 E30.00821
G1 X88.924 Y197.388 E30.24113
G1 X88.279 Y197.161 E30.26388
G1 X87.699 Y196.937 E30.28456
