;FLAVOR:Marlin
;TIME:6425
;Filament used: 4.37669m
;Layer height: 0.2
;MINX:78.077
;MINY:66.611
;MINZ:0.2
;MAXX:175.6
;MAXY:168.389
;MAXZ:11.2
;Generated with Cura_SteamEngine 4.11.0
M140 S50
M105
M190 S50
M104 S200
M105
M109 S200
M82 ;absolute extrusion mode
; Ender 3 Custom Start G-code
G92 E0 ; Reset Extruder
G28 ; Home all axes
G1 Z2.0 F3000 ; Move Z Axis up little to prevent scratching of Heat Bed
G1 X0.1 Y20 Z0.3 F5000.0 ; Move to start position
G1 X0.1 Y200.0 Z0.3 F1500.0 E15 ; Draw the first line
G1 X0.4 Y200.0 Z0.3 F5000.0 ; Move to side a little
G1 X0.4 Y20 Z0.3 F1500.0 E30 ; Draw the second line
G92 E0 ; Reset Extruder
G1 Z2.0 F3000 ; Move Z Axis up little to prevent scratching of Heat Bed
G1 X5 Y20 Z0.3 F5000.0 ; Move over to prevent blob squish
G92 E0
G92 E0
G1 F2700 E-5
;LAYER_COUNT:56
;LAYER:0
M107
G0 F6000 X81.631 Y84.69 Z0.2
;TYPE:SKIRT
G1 F2700 E0
G1 F1200 X96.14 Y70.182 E0.68244
G1 X96.625 Y69.712 E0.7049
G1 X97.326 Y69.088 E0.73611
G1 X98.077 Y68.527 E0.76729
G1 X98.873 Y68.031 E0.79849
G1 X99.709 Y67.606 E0.82968
G1 X100.578 Y67.253 E0.86087
G1 X101.474 Y66.975 E0.89208
G1 X102.39 Y66.775 E0.92326
G1 X103.32 Y66.653 E0.95446
G1 X104.257 Y66.611 E0.98565
G1 X105.194 Y66.649 E1.01684
G1 X106.124 Y66.767 E1.04802
G1 X106.676 Y66.875 E1.06673
G1 X107.46 Y67.05 E1.09345
G1 X109.959 Y67.569 E1.17834
G1 X112.48 Y68.018 E1.26351
G1 X114.951 Y68.387 E1.34661
G1 X117.433 Y68.686 E1.42975
G1 X119.96 Y68.918 E1.51416
G1 X122.477 Y69.078 E1.59804
G1 X124.964 Y69.165 E1.68081
G1 X127.523 Y69.182 E1.76592
G1 X129.983 Y69.129 E1.84776
G1 X132.562 Y69.001 E1.93365
G1 X135.021 Y68.808 E2.01568
G1 X137.558 Y68.538 E2.10054
G1 X140.024 Y68.204 E2.18331
G1 X142.52 Y67.793 E2.26745
G1 X144.98 Y67.317 E2.35078
G1 X146.5 Y66.979 E2.40257
G1 X147.145 Y66.844 E2.42449
G1 X148.07 Y66.691 E2.45567
G1 X149.005 Y66.618 E2.48687
G1 X149.943 Y66.624 E2.51807
G1 X150.877 Y66.711 E2.54927
G1 X151.8 Y66.876 E2.58045
G1 X152.705 Y67.12 E2.61163
G1 X153.587 Y67.44 E2.64283
G1 X154.438 Y67.834 E2.67402
G1 X155.253 Y68.299 E2.70523
G1 X156.025 Y68.831 E2.73642
G1 X156.966 Y69.628 E2.77743
G1 X157.197 Y69.847 E2.78802
G1 X157.407 Y70.052 E2.79778
G1 X172.018 Y84.665 E3.48508
G1 X172.489 Y85.151 E3.50759
G1 X173.113 Y85.851 E3.53878
G1 X173.674 Y86.603 E3.56999
G1 X174.169 Y87.399 E3.60116
G1 X174.595 Y88.235 E3.63237
G1 X174.948 Y89.104 E3.66357
G1 X175.226 Y89.999 E3.69474
G1 X175.426 Y90.916 E3.72595
G1 X175.548 Y91.845 E3.75712
G1 X175.584 Y92.435 E3.77678
G1 X175.594 Y92.82 E3.78959
G1 X175.6 Y93.363 E3.80765
G1 X175.599 Y141.65 E5.41368
G1 X175.589 Y142.352 E5.43703
G1 X175.536 Y143.288 E5.46821
G1 X175.403 Y144.216 E5.49939
G1 X175.191 Y145.13 E5.5306
G1 X174.903 Y146.023 E5.56181
G1 X174.539 Y146.887 E5.59299
G1 X174.103 Y147.718 E5.6242
G1 X173.598 Y148.508 E5.65539
G1 X173.028 Y149.252 E5.68656
G1 X172.655 Y149.676 E5.70535
G1 X172.514 Y149.828 E5.71224
G1 X172.312 Y150.04 E5.72198
G1 X172.131 Y150.225 E5.73059
G1 X157.562 Y164.793 E6.41585
G1 X157.071 Y165.271 E6.43864
G1 X156.372 Y165.896 E6.46983
G1 X155.622 Y166.459 E6.50102
G1 X154.827 Y166.956 E6.5322
G1 X153.992 Y167.384 E6.56341
G1 X153.124 Y167.739 E6.5946
G1 X152.229 Y168.019 E6.62579
G1 X151.313 Y168.221 E6.65699
G1 X150.383 Y168.345 E6.68819
G1 X149.446 Y168.389 E6.71939
G1 X148.509 Y168.353 E6.75058
G1 X147.579 Y168.237 E6.78175
G1 X147.005 Y168.126 E6.8012
G1 X146.197 Y167.946 E6.82873
G1 X143.718 Y167.431 E6.91294
G1 X141.197 Y166.982 E6.99811
G1 X138.726 Y166.613 E7.08121
G1 X136.244 Y166.314 E7.16436
G1 X133.717 Y166.082 E7.24876
G1 X131.2 Y165.922 E7.33264
G1 X128.713 Y165.835 E7.41541
G1 X126.154 Y165.818 E7.50053
G1 X123.694 Y165.871 E7.58236
G1 X121.115 Y165.999 E7.66825
G1 X118.656 Y166.192 E7.75029
G1 X116.119 Y166.462 E7.83514
G1 X113.653 Y166.796 E7.91791
G1 X111.157 Y167.207 E8.00205
G1 X108.697 Y167.683 E8.08539
G1 X107.177 Y168.021 E8.13718
G1 X106.532 Y168.156 E8.15909
G1 X105.607 Y168.309 E8.19028
G1 X104.672 Y168.382 E8.22147
G1 X103.734 Y168.376 E8.25267
G1 X102.8 Y168.289 E8.28387
G1 X101.877 Y168.124 E8.31505
G1 X100.972 Y167.88 E8.34623
G1 X100.09 Y167.56 E8.37744
G1 X99.239 Y167.166 E8.40863
G1 X98.424 Y166.701 E8.43983
G1 X97.652 Y166.169 E8.47102
G1 X96.705 Y165.366 E8.51231
G1 X96.467 Y165.14 E8.52323
G1 X96.263 Y164.941 E8.53271
G1 X81.666 Y150.342 E9.21935
G1 X81.199 Y149.861 E9.24165
G1 X80.575 Y149.161 E9.27284
G1 X80.013 Y148.411 E9.30401
G1 X79.517 Y147.615 E9.33521
G1 X79.09 Y146.779 E9.36643
G1 X78.736 Y145.911 E9.39761
G1 X78.458 Y145.015 E9.42881
G1 X78.256 Y144.099 E9.46001
G1 X78.11 Y142.849 E9.50187
G1 X78.101 Y142.697 E9.50693
G1 X78.083 Y142.181 E9.5241
G1 X78.077 Y141.638 E9.54217
G1 X78.078 Y93.35 E11.14823
G1 X78.088 Y92.648 E11.17158
G1 X78.141 Y91.712 E11.20276
G1 X78.274 Y90.784 E11.23394
G1 X78.486 Y89.87 E11.26515
G1 X78.774 Y88.977 E11.29636
G1 X79.138 Y88.113 E11.32754
G1 X79.574 Y87.282 E11.35875
G1 X80.079 Y86.492 E11.38994
G1 X80.649 Y85.748 E11.42111
G1 X81.022 Y85.324 E11.43989
G1 X81.163 Y85.172 E11.44679
G1 X81.365 Y84.96 E11.45653
G1 X81.631 Y84.69 E11.46914
G0 F6000 X81.913 Y84.973
G1 F1200 X96.418 Y70.469 E12.15138
G1 X96.903 Y69.999 E12.17385
G1 X97.592 Y69.388 E12.20448
G1 X98.33 Y68.838 E12.23509
G1 X99.114 Y68.355 E12.26572
G1 X99.937 Y67.942 E12.29634
G1 X100.792 Y67.601 E12.32696
G1 X101.674 Y67.336 E12.35759
G1 X102.575 Y67.149 E12.38819
G1 X103.49 Y67.041 E12.41884
G1 X104.41 Y67.012 E12.44945
G1 X105.329 Y67.063 E12.48007
G1 X106.589 Y67.265 E12.52251
G1 X107.37 Y67.439 E12.54912
G1 X109.906 Y67.966 E12.63527
G1 X112.388 Y68.408 E12.71912
G1 X114.915 Y68.786 E12.80411
G1 X117.417 Y69.087 E12.88792
G1 X119.9 Y69.315 E12.97086
G1 X122.439 Y69.476 E13.05547
G1 X124.982 Y69.565 E13.1401
G1 X127.493 Y69.582 E13.22362
G1 X130.048 Y69.527 E13.30862
G1 X132.542 Y69.403 E13.39168
G1 X135.098 Y69.203 E13.47695
G1 X137.579 Y68.938 E13.55994
G1 X140.111 Y68.595 E13.64492
G1 X142.589 Y68.187 E13.72845
G1 X145.071 Y67.707 E13.81253
G1 X146.581 Y67.371 E13.86398
G1 X147.226 Y67.236 E13.8859
G1 X148.135 Y67.087 E13.91654
G1 X149.053 Y67.017 E13.94716
G1 X149.974 Y67.027 E13.97779
G1 X150.89 Y67.116 E14.0084
G1 X151.795 Y67.286 E14.03903
G1 X152.682 Y67.532 E14.06964
G1 X153.544 Y67.855 E14.10026
G1 X154.375 Y68.252 E14.13089
G1 X155.168 Y68.719 E14.1615
G1 X155.918 Y69.253 E14.19212
G1 X156.691 Y69.919 E14.22606
G1 X156.922 Y70.138 E14.23665
G1 X157.124 Y70.335 E14.24603
G1 X171.731 Y84.943 E14.93312
G1 X172.202 Y85.429 E14.95563
G1 X172.813 Y86.117 E14.98624
G1 X173.363 Y86.856 E15.01688
G1 X173.846 Y87.64 E15.0475
G1 X174.259 Y88.462 E15.0781
G1 X174.6 Y89.318 E15.10875
G1 X174.865 Y90.2 E15.13938
G1 X175.052 Y91.101 E15.16998
G1 X175.184 Y92.448 E15.215
G1 X175.194 Y92.824 E15.22751
G1 X175.2 Y93.363 E15.24544
G1 X175.199 Y141.644 E16.85127
G1 X175.189 Y142.346 E16.87462
G1 X175.136 Y143.265 E16.90524
G1 X175.003 Y144.176 E16.93586
G1 X174.792 Y145.072 E16.96648
G1 X174.504 Y145.947 E16.99711
G1 X174.141 Y146.793 E17.02773
G1 X173.706 Y147.604 E17.05834
G1 X173.202 Y148.375 E17.08898
G1 X172.361 Y149.404 E17.13318
G1 X172.22 Y149.556 E17.14008
G1 X172.026 Y149.76 E17.14944
G1 X171.845 Y149.945 E17.15805
G1 X157.283 Y164.506 E17.84298
G1 X156.792 Y164.984 E17.86577
G1 X156.105 Y165.597 E17.89639
G1 X155.368 Y166.148 E17.927
G1 X154.585 Y166.633 E17.95763
G1 X153.763 Y167.048 E17.98826
G1 X152.909 Y167.391 E18.01887
G1 X152.028 Y167.658 E18.04948
G1 X151.127 Y167.847 E18.0801
G1 X150.213 Y167.958 E18.11073
G1 X149.293 Y167.988 E18.14134
G1 X148.373 Y167.939 E18.17199
G1 X147.092 Y167.735 E18.21513
G1 X146.352 Y167.57 E18.24035
G1 X143.771 Y167.034 E18.32802
G1 X141.289 Y166.592 E18.41187
G1 X138.762 Y166.214 E18.49686
G1 X136.26 Y165.913 E18.58067
G1 X133.777 Y165.685 E18.66361
G1 X131.238 Y165.524 E18.74822
G1 X128.695 Y165.435 E18.83285
G1 X126.184 Y165.418 E18.91637
G1 X123.629 Y165.473 E19.00137
G1 X121.135 Y165.597 E19.08443
G1 X118.579 Y165.797 E19.1697
G1 X116.098 Y166.062 E19.25269
G1 X113.566 Y166.405 E19.33767
G1 X111.088 Y166.813 E19.4212
G1 X108.606 Y167.293 E19.50528
G1 X107.096 Y167.629 E19.55673
G1 X106.451 Y167.764 E19.57865
G1 X105.542 Y167.913 E19.60928
G1 X104.624 Y167.983 E19.63991
G1 X103.703 Y167.973 E19.67054
G1 X102.787 Y167.884 E19.70115
G1 X101.882 Y167.714 E19.73178
G1 X100.995 Y167.468 E19.76239
G1 X100.133 Y167.145 E19.79301
G1 X99.302 Y166.748 E19.82364
G1 X98.509 Y166.281 E19.85425
G1 X97.759 Y165.747 E19.88487
G1 X96.98 Y165.076 E19.91907
G1 X96.742 Y164.85 E19.92998
G1 X96.546 Y164.658 E19.93911
G1 X81.953 Y150.064 E20.62554
G1 X81.486 Y149.583 E20.64784
G1 X80.874 Y148.895 E20.67847
G1 X80.324 Y148.157 E20.70908
G1 X79.84 Y147.374 E20.7397
G1 X79.426 Y146.551 E20.77034
G1 X79.085 Y145.696 E20.80095
G1 X78.819 Y144.815 E20.83156
G1 X78.631 Y143.914 E20.86218
G1 X78.51 Y142.826 E20.89859
G1 X78.501 Y142.674 E20.90365
G1 X78.483 Y142.177 E20.92019
G1 X78.477 Y141.638 E20.93812
G1 X78.478 Y93.356 E22.54399
G1 X78.488 Y92.654 E22.56734
G1 X78.541 Y91.735 E22.59795
G1 X78.674 Y90.824 E22.62857
G1 X78.885 Y89.928 E22.65919
G1 X79.173 Y89.053 E22.68983
G1 X79.536 Y88.207 E22.72045
G1 X79.971 Y87.396 E22.75106
G1 X80.475 Y86.625 E22.78169
G1 X81.316 Y85.596 E22.82589
G1 X81.457 Y85.444 E22.83279
G1 X81.651 Y85.24 E22.84215
G1 X81.913 Y84.973 E22.8546
G0 F6000 X82.196 Y85.256
G1 F1200 X96.697 Y70.756 E23.53665
G1 X97.182 Y70.286 E23.55912
G1 X97.857 Y69.687 E23.58913
G1 X98.583 Y69.15 E23.61917
G1 X99.354 Y68.679 E23.64922
G1 X100.164 Y68.279 E23.67926
G1 X101.005 Y67.951 E23.70929
G1 X101.872 Y67.699 E23.73932
G1 X102.759 Y67.525 E23.76938
G1 X103.657 Y67.43 E23.79942
G1 X104.56 Y67.415 E23.82945
G1 X105.46 Y67.48 E23.85947
G1 X106.501 Y67.656 E23.89458
G1 X107.253 Y67.824 E23.92021
G1 X109.833 Y68.359 E24.00785
G1 X112.324 Y68.803 E24.092
G1 X114.841 Y69.179 E24.17665
G1 X117.372 Y69.484 E24.26144
G1 X119.873 Y69.714 E24.34497
G1 X122.433 Y69.876 E24.43029
G1 X124.965 Y69.965 E24.51456
G1 X127.499 Y69.982 E24.59884
G1 X130.076 Y69.926 E24.68457
G1 X132.557 Y69.803 E24.76719
G1 X135.135 Y69.601 E24.8532
G1 X137.608 Y69.338 E24.93591
G1 X140.158 Y68.992 E25.0215
G1 X142.686 Y68.576 E25.10672
G1 X145.135 Y68.102 E25.18968
G1 X146.663 Y67.762 E25.24175
G1 X147.308 Y67.627 E25.26366
G1 X148.2 Y67.482 E25.29372
G1 X149.1 Y67.415 E25.32374
G1 X150.003 Y67.429 E25.35378
G1 X150.902 Y67.522 E25.38384
G1 X151.788 Y67.695 E25.41386
G1 X152.656 Y67.945 E25.44391
G1 X153.498 Y68.271 E25.47394
G1 X154.308 Y68.671 E25.50398
G1 X155.08 Y69.14 E25.53403
G1 X155.807 Y69.676 E25.56407
G1 X156.416 Y70.209 E25.59099
G1 X156.647 Y70.428 E25.60157
G1 X156.841 Y70.618 E25.6106
G1 X171.444 Y85.221 E26.29748
G1 X171.915 Y85.707 E26.31999
G1 X172.514 Y86.383 E26.35004
G1 X173.051 Y87.109 E26.38007
G1 X173.522 Y87.88 E26.41012
G1 X173.922 Y88.689 E26.44014
G1 X174.25 Y89.531 E26.47019
G1 X174.502 Y90.398 E26.50022
G1 X174.676 Y91.284 E26.53025
G1 X174.784 Y92.462 E26.5696
G1 X174.794 Y92.829 E26.58181
G1 X174.8 Y93.363 E26.59957
G1 X174.799 Y141.638 E28.2052
G1 X174.789 Y142.34 E28.22855
G1 X174.736 Y143.242 E28.25861
G1 X174.604 Y144.135 E28.28863
G1 X174.393 Y145.013 E28.31867
G1 X174.105 Y145.869 E28.3487
G1 X173.743 Y146.697 E28.37876
G1 X173.309 Y147.489 E28.4088
G1 X172.806 Y148.239 E28.43883
G1 X172.068 Y149.132 E28.47737
G1 X171.927 Y149.284 E28.48426
G1 X171.74 Y149.48 E28.49327
G1 X171.559 Y149.665 E28.50188
G1 X157.004 Y164.22 E29.1865
G1 X156.513 Y164.698 E29.20929
G1 X155.839 Y165.298 E29.23931
G1 X155.114 Y165.837 E29.26935
G1 X154.344 Y166.309 E29.29939
G1 X153.536 Y166.712 E29.32942
G1 X152.695 Y167.041 E29.35946
G1 X151.828 Y167.295 E29.38951
G1 X150.942 Y167.471 E29.41955
G1 X150.045 Y167.568 E29.44956
G1 X149.142 Y167.586 E29.4796
G1 X148.241 Y167.523 E29.50964
G1 X147.179 Y167.345 E29.54546
G1 X146.389 Y167.169 E29.57238
G1 X143.844 Y166.641 E29.65883
G1 X141.353 Y166.197 E29.74298
G1 X138.836 Y165.821 E29.82763
G1 X136.305 Y165.516 E29.91242
G1 X133.804 Y165.286 E29.99595
G1 X131.244 Y165.124 E30.08127
G1 X128.712 Y165.035 E30.16554
G1 X126.178 Y165.018 E30.24982
G1 X123.601 Y165.074 E30.33555
G1 X121.12 Y165.197 E30.41817
G1 X118.542 Y165.399 E30.50418
G1 X116.069 Y165.662 E30.58689
G1 X113.519 Y166.008 E30.67248
G1 X110.991 Y166.424 E30.7577
G1 X108.542 Y166.898 E30.84066
G1 X107.014 Y167.238 E30.89273
G1 X106.369 Y167.373 E30.91464
G1 X105.477 Y167.518 E30.9447
G1 X104.577 Y167.585 E30.97472
G1 X103.674 Y167.571 E31.00476
G1 X102.775 Y167.478 E31.03482
G1 X101.889 Y167.305 E31.06484
G1 X101.021 Y167.055 E31.09488
G1 X100.179 Y166.729 E31.12492
G1 X99.369 Y166.329 E31.15496
G1 X98.597 Y165.86 E31.18501
G1 X97.87 Y165.324 E31.21505
G1 X97.255 Y164.786 E31.24222
G1 X97.017 Y164.56 E31.25314
G1 X96.829 Y164.375 E31.26191
G1 X82.24 Y149.785 E31.94816
G1 X81.773 Y149.304 E31.97046
G1 X81.173 Y148.629 E32.00049
G1 X80.635 Y147.903 E32.03055
G1 X80.164 Y147.133 E32.06057
G1 X79.762 Y146.324 E32.09062
G1 X79.434 Y145.483 E32.12064
G1 X79.181 Y144.616 E32.15068
G1 X79.007 Y143.73 E32.18071
G1 X78.909 Y142.802 E32.21175
G1 X78.9 Y142.65 E32.21681
G1 X78.883 Y142.172 E32.23272
G1 X78.877 Y141.638 E32.25048
G1 X78.878 Y93.362 E33.85615
G1 X78.888 Y92.66 E33.8795
G1 X78.941 Y91.758 E33.90955
G1 X79.073 Y90.865 E33.93958
G1 X79.284 Y89.987 E33.96961
G1 X79.572 Y89.131 E33.99965
G1 X79.934 Y88.303 E34.02971
G1 X80.368 Y87.511 E34.05974
G1 X80.871 Y86.761 E34.08978
G1 X81.609 Y85.868 E34.12831
G1 X81.75 Y85.716 E34.13521
G1 X81.937 Y85.52 E34.14422
G1 X82.196 Y85.256 E34.15652
G1 F2700 E29.15652
;MESH:Part Studio 1 - Part 3.stl
G0 F6000 X103.694 Y86.047
G0 X102.688 Y87.114
G0 X104.392 Y87.6
;TYPE:WALL-INNER
G1 F2700 E34.15652
G1 F1200 X104.821 Y87.528 E34.17099
G1 X105.222 Y87.366 E34.18537
G1 X105.577 Y87.122 E34.1997
G1 X105.876 Y86.807 E34.21414
G1 X106.098 Y86.434 E34.22858
G1 X106.234 Y86.023 E34.24298
G1 X106.279 Y85.599 E34.25716
G1 X106.231 Y85.163 E34.27175
G1 X106.093 Y84.753 E34.28614
G1 X105.867 Y84.383 E34.30056
G1 X105.567 Y84.069 E34.315
G1 X105.209 Y83.828 E34.32936
G1 X104.806 Y83.669 E34.34377
G1 X104.38 Y83.6 E34.35812
G1 X103.947 Y83.624 E34.37254
G1 X103.529 Y83.742 E34.38699
G1 X103.147 Y83.947 E34.40141
G1 X102.819 Y84.228 E34.41577
G1 X102.559 Y84.573 E34.43014
G1 X102.377 Y84.968 E34.44461
G1 X102.286 Y85.391 E34.459
G1 X102.287 Y85.823 E34.47337
G1 X102.382 Y86.246 E34.48779
G1 X102.566 Y86.638 E34.50219
G1 X102.827 Y86.981 E34.51652
G1 X103.159 Y87.261 E34.53097
G1 X103.543 Y87.462 E34.54539
G1 X103.96 Y87.577 E34.55977
G1 X104.392 Y87.6 E34.57416
G0 F6000 X104.369 Y87.198
;TYPE:WALL-OUTER
G1 F1200 X104.712 Y87.141 E34.58573
G1 X105.031 Y87.012 E34.59717
G1 X105.316 Y86.816 E34.60868
G1 X105.555 Y86.564 E34.62023
G1 X105.732 Y86.267 E34.63173
G1 X105.841 Y85.938 E34.64325
G1 X105.877 Y85.6 E34.65456
G1 X105.838 Y85.25 E34.66627
G1 X105.728 Y84.923 E34.67775
G1 X105.548 Y84.628 E34.68924
G1 X105.308 Y84.377 E34.70079
G1 X105.022 Y84.184 E34.71227
G1 X104.7 Y84.057 E34.72378
G1 X104.359 Y84.002 E34.73527
G1 X104.013 Y84.021 E34.74679
G1 X103.68 Y84.115 E34.7583
G1 X103.374 Y84.279 E34.76985
G1 X103.112 Y84.504 E34.78134
G1 X102.904 Y84.779 E34.7928
G1 X102.759 Y85.095 E34.80437
G1 X102.686 Y85.433 E34.81587
G1 X102.687 Y85.778 E34.82734
G1 X102.763 Y86.116 E34.83887
G1 X102.91 Y86.43 E34.8504
G1 X103.119 Y86.704 E34.86186
G1 X103.383 Y86.927 E34.87335
G1 X103.691 Y87.088 E34.88491
G1 X104.024 Y87.18 E34.8964
G1 X104.369 Y87.198 E34.90789
G0 F6000 X104.393 Y87.637
G1 F2700 E29.90789
G0 F6000 X104.322 Y86.334
G0 X104.308 Y148.666
G0 X104.39 Y147.208
G0 X105.463 Y147.993
G0 X105.738 Y148.281
G0 X105.946 Y148.622
G0 X106.073 Y148.999
G0 X106.118 Y149.4
G0 X106.077 Y149.789
G0 X105.951 Y150.167
G0 X105.746 Y150.509
G0 X104.821 Y151.328
;TYPE:WALL-INNER
G1 F2700 E34.90789
G1 F1200 X105.222 Y151.166 E34.92228
G1 X105.577 Y150.922 E34.93661
G1 X105.876 Y150.607 E34.95105
G1 X106.098 Y150.234 E34.96549
G1 X106.234 Y149.823 E34.97989
G1 X106.279 Y149.399 E34.99407
G1 X106.231 Y148.963 E35.00866
G1 X106.093 Y148.553 E35.02305
G1 X105.867 Y148.183 E35.03747
