;FLAVOR:Marlin
;TIME:3753
;Filament used: 2.13748m
;Layer height: 0.2
;MINX:63.104
;MINY:79.38
;MINZ:0.2
;MAXX:181.919
;MAXY:145.382
;MAXZ:19.2
;Generated with Cura_SteamEngine 4.11.0
M140 S50
M105
M190 S50
M104 S200
M105
M109 S200
M82 ;absolute extrusion mode
; Ender 3 Custom Start G-code
G92 E0 ; Reset Extruder
G28 ; Home all axes
G1 Z2.0 F3000 ; Move Z Axis up little to prevent scratching of Heat Bed
G1 X0.1 Y20 Z0.3 F5000.0 ; Move to start position
G1 X0.1 Y200.0 Z0.3 F1500.0 E15 ; Draw the first line
G1 X0.4 Y200.0 Z0.3 F5000.0 ; Move to side a little
G1 X0.4 Y20 Z0.3 F1500.0 E30 ; Draw the second line
G92 E0 ; Reset Extruder
G1 Z2.0 F3000 ; Move Z Axis up little to prevent scratching of Heat Bed
G1 X5 Y20 Z0.3 F5000.0 ; Move over to prevent blob squish
G92 E0
G92 E0
G1 F2700 E-5
;LAYER_COUNT:96
;LAYER:0
M107
G0 F6000 X79.998 Y82.644 Z0.2
;TYPE:SKIRT
G1 F2700 E0
G1 F1200 X80.686 Y82.007 E0.03119
G1 X81.426 Y81.431 E0.06237
G1 X82.212 Y80.919 E0.09357
G1 X83.039 Y80.477 E0.12476
G1 X83.901 Y80.107 E0.15596
G1 X84.791 Y79.811 E0.18716
G1 X85.703 Y79.593 E0.21835
G1 X86.63 Y79.452 E0.24953
G1 X87.501 Y79.393 E0.27857
G1 X87.822 Y79.384 E0.28925
G1 X88.13 Y79.38 E0.29949
G1 X107.093 Y79.38 E0.93021
G1 X107.952 Y79.391 E0.95878
G1 X108.889 Y79.444 E0.98999
G1 X109.817 Y79.577 E1.02117
G1 X110.731 Y79.789 E1.05238
G1 X111.623 Y80.077 E1.08356
G1 X112.488 Y80.441 E1.11477
G1 X113.318 Y80.877 E1.14595
G1 X113.822 Y81.188 E1.16565
G1 X114.876 Y81.878 E1.20755
G1 X117.11 Y83.297 E1.29558
G1 X119.261 Y84.579 E1.37886
G1 X121.486 Y85.823 E1.46365
G1 X123.69 Y86.973 E1.54633
G1 X125.972 Y88.083 E1.63073
G1 X128.258 Y89.116 E1.71417
G1 X130.568 Y90.082 E1.79745
G1 X132.979 Y91.012 E1.8834
G1 X135.301 Y91.831 E1.96529
G1 X137.688 Y92.599 E2.04869
G1 X140.115 Y93.305 E2.13276
G1 X142.548 Y93.939 E2.21638
G1 X144.999 Y94.504 E2.30004
G1 X147.505 Y95.008 E2.38506
G1 X149.948 Y95.425 E2.46749
G1 X152.461 Y95.783 E2.55192
G1 X154.938 Y96.065 E2.63483
G1 X157.553 Y96.289 E2.72213
G1 X158.013 Y96.322 E2.73747
G1 X158.945 Y96.43 E2.76867
G1 X159.864 Y96.617 E2.79986
G1 X160.764 Y96.881 E2.83106
G1 X161.638 Y97.222 E2.86226
G1 X162.479 Y97.635 E2.89343
G1 X163.283 Y98.119 E2.92464
G1 X164.042 Y98.669 E2.95581
G1 X164.752 Y99.282 E2.98701
G1 X165.407 Y99.953 E3.0182
G1 X166.003 Y100.678 E3.04942
G1 X166.534 Y101.451 E3.08061
G1 X166.998 Y102.266 E3.1118
G1 X167.391 Y103.117 E3.14298
G1 X167.709 Y103.999 E3.17416
G1 X167.952 Y104.905 E3.20536
G1 X168.116 Y105.829 E3.23657
G1 X168.21 Y106.983 E3.27508
G1 X168.219 Y107.302 E3.2857
G1 X168.223 Y107.612 E3.29601
G1 X168.222 Y133.782 E4.16643
G1 X168.213 Y134.509 E4.19061
G1 X168.162 Y135.446 E4.22182
G1 X168.03 Y136.374 E4.25299
G1 X167.821 Y137.288 E4.28418
G1 X167.534 Y138.181 E4.31538
G1 X167.172 Y139.047 E4.34659
G1 X166.738 Y139.878 E4.37778
G1 X166.234 Y140.669 E4.40897
G1 X165.665 Y141.414 E4.44015
G1 X165.034 Y142.109 E4.47137
G1 X164.347 Y142.747 E4.50256
G1 X163.608 Y143.324 E4.53374
G1 X162.822 Y143.836 E4.56494
G1 X161.996 Y144.279 E4.59611
G1 X161.134 Y144.651 E4.62734
G1 X160.245 Y144.947 E4.6585
G1 X159.333 Y145.167 E4.68971
G1 X158.406 Y145.308 E4.72089
G1 X157.522 Y145.369 E4.75037
G1 X157.201 Y145.378 E4.76105
G1 X156.893 Y145.382 E4.77129
G1 X137.774 Y145.381 E5.40719
G1 X137.071 Y145.371 E5.43058
G1 X136.134 Y145.318 E5.46179
G1 X135.206 Y145.185 E5.49297
G1 X134.292 Y144.973 E5.52418
G1 X133.4 Y144.685 E5.55535
G1 X132.535 Y144.321 E5.58657
G1 X131.705 Y143.885 E5.61775
G1 X131.201 Y143.574 E5.63745
G1 X130.147 Y142.884 E5.67935
G1 X127.913 Y141.465 E5.76737
G1 X125.762 Y140.183 E5.85066
G1 X123.537 Y138.939 E5.93544
G1 X121.333 Y137.789 E6.01813
G1 X119.051 Y136.679 E6.10253
G1 X116.765 Y135.646 E6.18597
G1 X114.455 Y134.68 E6.26924
G1 X112.044 Y133.75 E6.35519
G1 X109.722 Y132.931 E6.43709
G1 X107.335 Y132.163 E6.52049
G1 X104.908 Y131.457 E6.60456
G1 X102.475 Y130.823 E6.68818
G1 X100.024 Y130.258 E6.77184
G1 X97.518 Y129.754 E6.85686
G1 X95.075 Y129.337 E6.93929
G1 X92.562 Y128.979 E7.02371
G1 X90.085 Y128.697 E7.10663
G1 X87.47 Y128.473 E7.19392
G1 X87.01 Y128.44 E7.20926
G1 X86.078 Y128.332 E7.24047
G1 X85.159 Y128.145 E7.27166
G1 X84.259 Y127.881 E7.30286
G1 X83.385 Y127.54 E7.33406
G1 X82.544 Y127.127 E7.36522
G1 X81.74 Y126.643 E7.39644
G1 X80.981 Y126.093 E7.42761
G1 X80.271 Y125.48 E7.45881
G1 X79.616 Y124.809 E7.49
G1 X79.02 Y124.084 E7.52121
G1 X78.489 Y123.311 E7.55241
G1 X78.025 Y122.496 E7.5836
G1 X77.632 Y121.645 E7.61477
G1 X77.314 Y120.763 E7.64596
G1 X77.071 Y119.857 E7.67716
G1 X76.907 Y118.933 E7.70837
G1 X76.813 Y117.768 E7.74724
G1 X76.804 Y117.437 E7.75826
G1 X76.8 Y117.138 E7.7682
G1 X76.801 Y90.905 E8.64072
G1 X76.81 Y90.24 E8.66284
G1 X76.863 Y89.304 E8.69402
G1 X76.995 Y88.375 E8.72523
G1 X77.206 Y87.461 E8.75643
G1 X77.494 Y86.569 E8.7876
G1 X77.857 Y85.704 E8.8188
G1 X78.292 Y84.873 E8.85
G1 X78.796 Y84.083 E8.88117
G1 X79.366 Y83.338 E8.91237
G1 X79.998 Y82.644 E8.94359
G0 F6000 X80.389 Y82.819
G1 F1200 X81.074 Y82.203 E8.97423
G1 X81.81 Y81.65 E9.00485
G1 X82.591 Y81.162 E9.03548
G1 X83.411 Y80.744 E9.06609
G1 X84.265 Y80.399 E9.09672
G1 X85.145 Y80.129 E9.12734
G1 X86.045 Y79.937 E9.15795
G1 X86.959 Y79.823 E9.18858
G1 X87.512 Y79.793 E9.207
G1 X87.833 Y79.784 E9.21768
G1 X88.13 Y79.78 E9.22756
G1 X107.093 Y79.78 E9.85827
G1 X107.947 Y79.791 E9.88668
G1 X108.866 Y79.844 E9.9173
G1 X109.777 Y79.977 E9.94792
G1 X110.673 Y80.188 E9.97853
G1 X111.547 Y80.476 E10.00914
G1 X112.394 Y80.839 E10.03979
G1 X113.205 Y81.274 E10.0704
G1 X113.603 Y81.522 E10.086
G1 X114.699 Y82.24 E10.12958
G1 X116.912 Y83.645 E10.21676
G1 X119.082 Y84.939 E10.30079
G1 X121.27 Y86.161 E10.38415
G1 X123.508 Y87.33 E10.46813
G1 X125.811 Y88.45 E10.5533
G1 X128.075 Y89.473 E10.63593
G1 X130.449 Y90.466 E10.72152
G1 X132.808 Y91.376 E10.80562
G1 X135.182 Y92.214 E10.88935
G1 X137.56 Y92.978 E10.97243
G1 X140.017 Y93.693 E11.05754
G1 X142.463 Y94.33 E11.14161
G1 X144.936 Y94.9 E11.22601
G1 X147.397 Y95.395 E11.30951
G1 X149.895 Y95.822 E11.3938
G1 X152.391 Y96.178 E11.47765
G1 X154.895 Y96.463 E11.56147
G1 X157.57 Y96.691 E11.65077
G1 X157.984 Y96.721 E11.66457
G1 X158.898 Y96.828 E11.69518
G1 X159.8 Y97.013 E11.72581
G1 X160.682 Y97.277 E11.75643
G1 X161.539 Y97.615 E11.78707
G1 X162.362 Y98.027 E11.81768
G1 X163.147 Y98.509 E11.84832
G1 X163.886 Y99.057 E11.87892
G1 X164.576 Y99.667 E11.90955
G1 X165.21 Y100.334 E11.94016
G1 X165.784 Y101.054 E11.97078
G1 X166.293 Y101.821 E12.0014
G1 X166.733 Y102.63 E12.03203
G1 X167.102 Y103.473 E12.06264
G1 X167.396 Y104.346 E12.09327
G1 X167.613 Y105.24 E12.12387
G1 X167.752 Y106.151 E12.15452
G1 X167.81 Y106.994 E12.18263
G1 X167.819 Y107.313 E12.19324
G1 X167.823 Y107.612 E12.20319
G1 X167.822 Y133.777 E13.07344
G1 X167.813 Y134.504 E13.09762
G1 X167.762 Y135.423 E13.12823
G1 X167.631 Y136.335 E13.15888
G1 X167.421 Y137.231 E13.18949
G1 X167.135 Y138.106 E13.2201
G1 X166.774 Y138.953 E13.25073
G1 X166.34 Y139.765 E13.28135
G1 X165.838 Y140.537 E13.31198
G1 X165.27 Y141.262 E13.34261
G1 X164.642 Y141.935 E13.37323
G1 X163.958 Y142.551 E13.40384
G1 X163.223 Y143.105 E13.43446
G1 X162.443 Y143.594 E13.46508
G1 X161.623 Y144.013 E13.4957
G1 X160.77 Y144.359 E13.52632
G1 X159.89 Y144.63 E13.55694
G1 X158.99 Y144.823 E13.58756
G1 X158.076 Y144.938 E13.6182
G1 X157.511 Y144.969 E13.63702
G1 X157.19 Y144.978 E13.6477
G1 X156.893 Y144.982 E13.65758
G1 X137.779 Y144.981 E14.29331
G1 X137.076 Y144.971 E14.3167
G1 X136.157 Y144.918 E14.34731
G1 X135.246 Y144.785 E14.37794
G1 X134.35 Y144.574 E14.40855
G1 X133.476 Y144.286 E14.43916
G1 X132.629 Y143.923 E14.46981
G1 X131.818 Y143.488 E14.50042
G1 X131.42 Y143.24 E14.51601
G1 X130.324 Y142.522 E14.55959
G1 X128.111 Y141.117 E14.64678
G1 X125.941 Y139.823 E14.73081
G1 X123.753 Y138.601 E14.81417
G1 X121.515 Y137.432 E14.89814
G1 X119.212 Y136.312 E14.98332
G1 X116.948 Y135.289 E15.06595
G1 X114.574 Y134.296 E15.15154
G1 X112.215 Y133.386 E15.23564
G1 X109.841 Y132.548 E15.31937
G1 X107.463 Y131.784 E15.40245
G1 X105.006 Y131.069 E15.48756
G1 X102.56 Y130.432 E15.57162
G1 X100.087 Y129.862 E15.65603
G1 X97.626 Y129.367 E15.73952
G1 X95.128 Y128.94 E15.82381
G1 X92.632 Y128.584 E15.90767
G1 X90.128 Y128.299 E15.99149
G1 X87.453 Y128.071 E16.08079
G1 X87.039 Y128.041 E16.09459
G1 X86.125 Y127.934 E16.1252
G1 X85.223 Y127.749 E16.15582
G1 X84.341 Y127.485 E16.18645
G1 X83.484 Y127.147 E16.21709
G1 X82.661 Y126.735 E16.2477
G1 X81.876 Y126.253 E16.27834
G1 X81.137 Y125.705 E16.30894
G1 X80.447 Y125.095 E16.33957
G1 X79.813 Y124.428 E16.37017
G1 X79.239 Y123.708 E16.4008
G1 X78.73 Y122.941 E16.43142
G1 X78.29 Y122.132 E16.46205
G1 X77.921 Y121.289 E16.49265
G1 X77.627 Y120.416 E16.52329
G1 X77.41 Y119.522 E16.55389
G1 X77.271 Y118.611 E16.58454
G1 X77.213 Y117.757 E16.61301
G1 X77.204 Y117.426 E16.62402
G1 X77.2 Y117.138 E16.6336
G1 X77.201 Y90.911 E17.50592
G1 X77.21 Y90.246 E17.52804
G1 X77.262 Y89.326 E17.55869
G1 X77.394 Y88.415 E17.5893
G1 X77.605 Y87.519 E17.61992
G1 X77.892 Y86.644 E17.65055
G1 X78.255 Y85.798 E17.68116
G1 X78.689 Y84.986 E17.71179
G1 X79.192 Y84.215 E17.74241
G1 X79.761 Y83.491 E17.77303
G1 X80.389 Y82.819 E17.80362
G0 F6000 X80.781 Y82.997
G1 F1200 X81.462 Y82.404 E17.83366
G1 X82.194 Y81.874 E17.86372
G1 X82.969 Y81.411 E17.89374
G1 X83.782 Y81.018 E17.92378
G1 X84.627 Y80.698 E17.95383
G1 X85.496 Y80.455 E17.98384
G1 X86.384 Y80.289 E18.01389
G1 X87.523 Y80.193 E18.05191
G1 X87.844 Y80.184 E18.06259
G1 X88.13 Y80.18 E18.0721
G1 X107.093 Y80.18 E18.70281
G1 X107.941 Y80.191 E18.73102
G1 X108.843 Y80.244 E18.76107
G1 X109.736 Y80.376 E18.79109
G1 X110.614 Y80.587 E18.82113
G1 X111.47 Y80.875 E18.85117
G1 X112.297 Y81.237 E18.88119
G1 X113.384 Y81.857 E18.92281
G1 X114.503 Y82.59 E18.96731
G1 X116.672 Y83.968 E19.05278
G1 X118.888 Y85.288 E19.13857
G1 X121.069 Y86.507 E19.22167
G1 X123.355 Y87.7 E19.30743
G1 X125.621 Y88.802 E19.39124
G1 X127.934 Y89.848 E19.47567
G1 X130.287 Y90.832 E19.5605
G1 X132.679 Y91.755 E19.64577
G1 X135.021 Y92.581 E19.72837
G1 X137.474 Y93.369 E19.81407
G1 X139.909 Y94.078 E19.89842
G1 X142.378 Y94.721 E19.98328
G1 X144.839 Y95.288 E20.06727
G1 X147.349 Y95.794 E20.15244
G1 X149.808 Y96.214 E20.23541
G1 X152.326 Y96.572 E20.32
G1 X154.888 Y96.864 E20.40576
G1 X157.507 Y97.087 E20.49319
G1 X157.955 Y97.12 E20.50813
G1 X158.852 Y97.225 E20.53817
G1 X159.736 Y97.41 E20.5682
G1 X160.6 Y97.672 E20.59823
G1 X161.438 Y98.009 E20.62827
G1 X162.243 Y98.419 E20.65832
G1 X163.008 Y98.898 E20.68834
G1 X163.728 Y99.444 E20.7184
G1 X164.397 Y100.051 E20.74844
G1 X165.009 Y100.714 E20.77845
G1 X165.56 Y101.43 E20.8085
G1 X166.046 Y102.191 E20.83853
G1 X166.463 Y102.992 E20.86857
G1 X166.807 Y103.827 E20.8986
G1 X167.076 Y104.689 E20.92864
G1 X167.268 Y105.572 E20.95869
G1 X167.381 Y106.468 E20.98873
G1 X167.41 Y107.005 E21.00662
G1 X167.419 Y107.324 E21.01723
G1 X167.423 Y107.612 E21.02681
G1 X167.422 Y133.772 E21.8969
G1 X167.413 Y134.499 E21.92108
G1 X167.362 Y135.401 E21.95113
G1 X167.231 Y136.295 E21.98118
G1 X167.022 Y137.173 E22.0112
G1 X166.736 Y138.03 E22.04125
G1 X166.375 Y138.858 E22.07129
G1 X165.943 Y139.65 E22.1013
G1 X165.442 Y140.402 E22.13135
G1 X164.876 Y141.106 E22.16139
G1 X164.251 Y141.757 E22.19141
G1 X163.57 Y142.351 E22.22147
G1 X162.839 Y142.882 E22.25152
G1 X162.065 Y143.346 E22.28153
G1 X161.252 Y143.74 E22.31158
G1 X160.408 Y144.06 E22.3416
G1 X159.538 Y144.305 E22.37166
G1 X158.651 Y144.471 E22.40168
G1 X157.5 Y144.569 E22.4401
G1 X157.179 Y144.578 E22.45078
G1 X156.893 Y144.582 E22.46029
G1 X137.785 Y144.581 E23.09583
G1 X137.082 Y144.571 E23.11921
G1 X136.18 Y144.518 E23.14926
G1 X135.287 Y144.386 E23.17929
G1 X134.409 Y144.175 E23.20932
G1 X133.553 Y143.887 E23.23936
G1 X132.726 Y143.525 E23.26939
G1 X131.639 Y142.905 E23.31101
G1 X130.52 Y142.172 E23.3555
G1 X128.351 Y140.794 E23.44097
G1 X126.135 Y139.474 E23.52676
G1 X123.954 Y138.255 E23.60986
G1 X121.668 Y137.062 E23.69562
G1 X119.402 Y135.96 E23.77943
G1 X117.089 Y134.914 E23.86386
G1 X114.736 Y133.93 E23.94869
G1 X112.344 Y133.007 E24.03397
G1 X110.002 Y132.181 E24.11657
G1 X107.549 Y131.393 E24.20226
G1 X105.114 Y130.684 E24.28661
G1 X102.645 Y130.041 E24.37147
G1 X100.184 Y129.474 E24.45547
G1 X97.674 Y128.968 E24.54063
G1 X95.215 Y128.548 E24.6236
G1 X92.697 Y128.19 E24.70819
G1 X90.135 Y127.898 E24.79396
G1 X87.516 Y127.675 E24.88138
G1 X87.068 Y127.642 E24.89632
G1 X86.171 Y127.537 E24.92636
G1 X85.287 Y127.352 E24.9564
G1 X84.423 Y127.09 E24.98643
G1 X83.585 Y126.753 E25.01647
G1 X82.78 Y126.343 E25.04651
G1 X82.015 Y125.864 E25.07653
G1 X81.295 Y125.318 E25.10659
G1 X80.626 Y124.711 E25.13663
G1 X80.014 Y124.048 E25.16664
G1 X79.463 Y123.332 E25.19669
G1 X78.977 Y122.571 E25.22672
G1 X78.56 Y121.77 E25.25676
G1 X78.216 Y120.935 E25.2868
G1 X77.947 Y120.073 E25.31683
G1 X77.755 Y119.19 E25.34689
G1 X77.642 Y118.294 E25.37692
G1 X77.613 Y117.746 E25.39518
G1 X77.604 Y117.415 E25.40619
G1 X77.6 Y117.138 E25.4154
G1 X77.601 Y90.916 E26.28755
G1 X77.61 Y90.251 E26.30967
G1 X77.662 Y89.349 E26.33972
G1 X77.794 Y88.456 E26.36974
G1 X78.004 Y87.578 E26.39977
G1 X78.291 Y86.721 E26.42983
G1 X78.653 Y85.894 E26.45986
G1 X79.086 Y85.102 E26.48988
G1 X79.588 Y84.351 E26.51992
G1 X80.155 Y83.647 E26.54999
G1 X80.781 Y82.997 E26.58
G1 F2700 E21.58
;MESH:Part Studio 1 - Part 7.stl
G0 F6000 X88.114 Y89.715
G0 X88.114 Y90.694
G0 X96.275 Y91.176
G0 X95.687 Y93.746
G0 X97.219 Y94.625
G0 X98.477 Y94.871
;TYPE:WALL-INNER
G1 F2700 E26.58
G1 F1200 X98.89 Y94.678 E26.59516
G1 X99.25 Y94.401 E26.61027
G1 X99.545 Y94.054 E26.62542
G1 X99.754 Y93.651 E26.64052
G1 X99.875 Y93.215 E26.65557
G1 X99.9 Y92.759 E26.67076
G1 X99.824 Y92.31 E26.68591
G1 X99.654 Y91.89 E26.70098
G1 X99.398 Y91.514 E26.7161
G1 X99.228 Y91.354 E26.72387
G1 X99.066 Y91.202 E26.73126
G1 X98.695 Y90.98 E26.74564
G1 X99.066 Y90.98 E26.74869
G1 X99.289 Y90.98 E26.75458
G1 X107.2 Y90.98 E27.0177
G1 X107.2 Y116.88 E27.87914
G1 X88.4 Y116.88 E28.50443
G1 X88.4 Y90.98 E29.36587
G1 X96.311 Y90.98 E29.62899
G1 X96.521 Y90.98 E29.63597
G1 X96.903 Y90.98 E29.64868
G1 X96.521 Y91.21 E29.65406
G1 X96.37 Y91.355 E29.65965
G1 X96.193 Y91.524 E29.66779
G1 X95.939 Y91.904 E29.68299
G1 X95.773 Y92.324 E29.69801
G1 X95.7 Y92.773 E29.71314
G1 X95.727 Y93.228 E29.7283
G1 X95.849 Y93.664 E29.74336
G1 X96.063 Y94.066 E29.7585
G1 X96.36 Y94.411 E29.77364
G1 X96.723 Y94.685 E29.78877
G1 X97.136 Y94.875 E29.80389
G1 X97.58 Y94.97 E29.81899
G1 X98.033 Y94.969 E29.83406
G1 X98.477 Y94.871 E29.84918
G0 F6000 X98.348 Y94.49
;TYPE:WALL-OUTER
G1 F1200 X98.681 Y94.334 E29.86141
G1 X98.973 Y94.11 E29.87365
G1 X99.211 Y93.83 E29.88588
G1 X99.38 Y93.504 E29.89809
G1 X99.478 Y93.15 E29.91031
G1 X99.498 Y92.782 E29.92257
G1 X99.437 Y92.42 E29.93477
G1 X99.299 Y92.08 E29.94698
G1 X99.092 Y91.775 E29.95924
G1 X98.824 Y91.523 E29.97147
G1 X98.509 Y91.335 E29.98368
G1 X98.16 Y91.218 E29.99592
G1 X97.794 Y91.18 E30.00816
G1 X97.429 Y91.22 E30.02037
G1 X97.08 Y91.34 E30.03264
G1 X96.766 Y91.53 E30.04485
G1 X96.501 Y91.783 E30.05704
G1 X96.295 Y92.091 E30.06936
G1 X96.161 Y92.431 E30.08152
G1 X96.102 Y92.793 E30.09372
G1 X96.124 Y93.161 E30.10598
G1 X96.223 Y93.515 E30.1182
G1 X96.395 Y93.839 E30.1304
G1 X96.635 Y94.118 E30.14264
G1 X96.929 Y94.34 E30.1549
G1 X97.263 Y94.493 E30.16712
G1 X97.622 Y94.57 E30.17933
G1 X97.989 Y94.569 E30.19153
G1 X98.348 Y94.49 E30.20376
G0 F6000 X98.489 Y94.906
G1 F2700 E25.20376
G0 F6000 X98.056 Y95.179
G0 X97.895 Y93.709
G0 X97.799 Y111.146
G0 X97.793 Y109.687
G0 X99.199 Y110.785
G0 X99.423 Y111.115
G0 X99.572 Y111.483
G0 X99.637 Y111.874
G0 X99.616 Y112.272
G0 X99.511 Y112.655
G0 X98.477 Y113.971
;TYPE:WALL-INNER
G1 F2700 E30.20376
G1 F1200 X98.89 Y113.778 E30.21892
G1 X99.25 Y113.501 E30.23403
G1 X99.545 Y113.154 E30.24918
G1 X99.754 Y112.751 E30.26428
G1 X99.875 Y112.315 E30.27933
G1 X99.9 Y111.859 E30.29452
G1 X99.824 Y111.41 E30.30966
G1 X99.654 Y110.99 E30.32473
G1 X99.398 Y110.614 E30.33986
G1 X99.066 Y110.302 E30.35502
G1 X98.677 Y110.069 E30.3701
G1 X98.245 Y109.925 E30.38524
