;FLAVOR:Marlin
;TIME:3814
;Filament used: 2.58736m
;Layer height: 0.2
;MINX:86.3
;MINY:86.5
;MINZ:0.2
;MAXX:148.7
;MAXY:148.5
;MAXZ:8.4
;Generated with Cura_SteamEngine 4.11.0
M140 S50
M105
M190 S50
M104 S200
M105
M109 S200
M82 ;absolute extrusion mode
; Ender 3 Custom Start G-code
G92 E0 ; Reset Extruder
G28 ; Home all axes
G1 Z2.0 F3000 ; Move Z Axis up little to prevent scratching of Heat Bed
G1 X0.1 Y20 Z0.3 F5000.0 ; Move to start position
G1 X0.1 Y200.0 Z0.3 F1500.0 E15 ; Draw the first line
G1 X0.4 Y200.0 Z0.3 F5000.0 ; Move to side a little
G1 X0.4 Y20 Z0.3 F1500.0 E30 ; Draw the second line
G92 E0 ; Reset Extruder
G1 Z2.0 F3000 ; Move Z Axis up little to prevent scratching of Heat Bed
G1 X5 Y20 Z0.3 F5000.0 ; Move over to prevent blob squish
G92 E0
G92 E0
G1 F2700 E-5
;LAYER_COUNT:43
;LAYER:0
M107
G0 F6000 X89.498 Y89.764 Z0.2
;TYPE:SKIRT
G1 F2700 E0
G1 F1200 X90.186 Y89.127 E0.03119
G1 X90.926 Y88.551 E0.06237
G1 X91.712 Y88.039 E0.09357
G1 X92.539 Y87.597 E0.12476
G1 X93.401 Y87.227 E0.15596
G1 X94.291 Y86.931 E0.18716
G1 X95.203 Y86.713 E0.21835
G1 X96.13 Y86.572 E0.24953
G1 X97.001 Y86.513 E0.27857
G1 X97.322 Y86.504 E0.28925
G1 X97.63 Y86.5 E0.29949
G1 X136.993 Y86.5 E1.60871
G1 X137.849 Y86.511 E1.63719
G1 X138.785 Y86.565 E1.66837
G1 X139.713 Y86.697 E1.69955
G1 X140.627 Y86.909 E1.73075
G1 X141.519 Y87.198 E1.76194
G1 X142.384 Y87.561 E1.79314
G1 X143.214 Y87.997 E1.82432
G1 X144.005 Y88.502 E1.85554
G1 X144.749 Y89.073 E1.88673
G1 X145.442 Y89.705 E1.91792
G1 X146.079 Y90.393 E1.94911
G1 X146.654 Y91.134 E1.9803
G1 X147.165 Y91.92 E2.01149
G1 X147.607 Y92.748 E2.0427
G1 X147.976 Y93.61 E2.07389
G1 X148.271 Y94.5 E2.10508
G1 X148.489 Y95.412 E2.13626
G1 X148.629 Y96.34 E2.16748
G1 X148.687 Y97.201 E2.19618
G1 X148.696 Y97.521 E2.20683
G1 X148.7 Y97.83 E2.21711
G1 X148.699 Y136.9 E3.51658
G1 X148.69 Y137.627 E3.54076
G1 X148.639 Y138.564 E3.57197
G1 X148.507 Y139.492 E3.60315
G1 X148.298 Y140.406 E3.63433
G1 X148.011 Y141.299 E3.66553
G1 X147.649 Y142.165 E3.69675
G1 X147.215 Y142.996 E3.72793
G1 X146.711 Y143.787 E3.75913
G1 X146.142 Y144.532 E3.7903
G1 X145.511 Y145.227 E3.82153
G1 X144.824 Y145.865 E3.85271
G1 X144.085 Y146.442 E3.88389
G1 X143.299 Y146.954 E3.91509
G1 X142.473 Y147.397 E3.94627
G1 X141.611 Y147.769 E3.97749
G1 X140.722 Y148.065 E4.00866
G1 X139.81 Y148.285 E4.03986
G1 X138.883 Y148.426 E4.07105
G1 X137.999 Y148.487 E4.10052
G1 X137.678 Y148.496 E4.1112
G1 X137.37 Y148.5 E4.12145
G1 X97.865 Y148.499 E5.43539
G1 X97.167 Y148.49 E5.4586
G1 X96.231 Y148.438 E5.48978
G1 X95.302 Y148.306 E5.52099
G1 X94.388 Y148.096 E5.55219
G1 X93.495 Y147.809 E5.58338
G1 X92.63 Y147.446 E5.61458
G1 X91.799 Y147.012 E5.64577
G1 X91.008 Y146.508 E5.67696
G1 X90.263 Y145.938 E5.70816
G1 X89.569 Y145.307 E5.73936
G1 X88.932 Y144.62 E5.77052
G1 X88.355 Y143.88 E5.80173
G1 X87.843 Y143.094 E5.83293
G1 X87.4 Y142.267 E5.86413
G1 X87.029 Y141.406 E5.89531
G1 X86.733 Y140.516 E5.92651
G1 X86.514 Y139.604 E5.95771
G1 X86.373 Y138.677 E5.98889
G1 X86.313 Y137.788 E6.01853
G1 X86.304 Y137.455 E6.02961
G1 X86.3 Y137.158 E6.03949
G1 X86.301 Y98.025 E7.34106
G1 X86.31 Y97.36 E7.36318
G1 X86.363 Y96.424 E7.39436
G1 X86.495 Y95.495 E7.42557
G1 X86.706 Y94.581 E7.45676
G1 X86.994 Y93.689 E7.48794
G1 X87.357 Y92.824 E7.51914
G1 X87.792 Y91.993 E7.55034
G1 X88.296 Y91.203 E7.58151
G1 X88.866 Y90.458 E7.61271
G1 X89.498 Y89.764 E7.64392
G0 F6000 X89.889 Y89.939
G1 F1200 X90.574 Y89.323 E7.67457
G1 X91.31 Y88.77 E7.70518
G1 X92.091 Y88.282 E7.73581
G1 X92.911 Y87.864 E7.76643
G1 X93.765 Y87.519 E7.79706
G1 X94.645 Y87.249 E7.82768
G1 X95.545 Y87.057 E7.85828
G1 X96.459 Y86.943 E7.88892
G1 X97.012 Y86.913 E7.90734
G1 X97.333 Y86.904 E7.91802
G1 X97.63 Y86.9 E7.9279
G1 X136.993 Y86.9 E9.23712
G1 X137.843 Y86.911 E9.26539
G1 X138.762 Y86.964 E9.29601
G1 X139.673 Y87.097 E9.32663
G1 X140.569 Y87.308 E9.35725
G1 X141.443 Y87.596 E9.38785
G1 X142.29 Y87.959 E9.4185
G1 X143.101 Y88.394 E9.44911
G1 X143.871 Y88.898 E9.47972
G1 X144.595 Y89.467 E9.51035
G1 X145.267 Y90.097 E9.54098
G1 X145.882 Y90.782 E9.5716
G1 X146.435 Y91.518 E9.60222
G1 X146.922 Y92.299 E9.63283
G1 X147.339 Y93.12 E9.66346
G1 X147.684 Y93.974 E9.6941
G1 X147.953 Y94.854 E9.7247
G1 X148.145 Y95.755 E9.75534
G1 X148.258 Y96.668 E9.78594
G1 X148.287 Y97.212 E9.80406
G1 X148.296 Y97.532 E9.81471
G1 X148.3 Y97.83 E9.82462
G1 X148.299 Y136.895 E11.12393
G1 X148.29 Y137.622 E11.14811
G1 X148.239 Y138.541 E11.17872
G1 X148.108 Y139.453 E11.20937
G1 X147.898 Y140.349 E11.23998
G1 X147.612 Y141.224 E11.27059
G1 X147.251 Y142.071 E11.30122
G1 X146.817 Y142.883 E11.33184
G1 X146.315 Y143.655 E11.36247
G1 X145.747 Y144.38 E11.3931
G1 X145.119 Y145.053 E11.42372
G1 X144.435 Y145.669 E11.45433
G1 X143.7 Y146.223 E11.48494
G1 X142.92 Y146.712 E11.51556
G1 X142.1 Y147.131 E11.54619
G1 X141.247 Y147.477 E11.57681
G1 X140.367 Y147.748 E11.60743
G1 X139.467 Y147.941 E11.63805
G1 X138.553 Y148.056 E11.66869
G1 X137.988 Y148.087 E11.68751
G1 X137.667 Y148.096 E11.69819
G1 X137.37 Y148.1 E11.70807
G1 X97.87 Y148.099 E13.02184
G1 X97.172 Y148.09 E13.04506
G1 X96.253 Y148.038 E13.07567
G1 X95.342 Y147.907 E13.10629
G1 X94.446 Y147.697 E13.13689
G1 X93.571 Y147.41 E13.16752
G1 X92.724 Y147.048 E13.19816
G1 X91.912 Y146.614 E13.22878
G1 X91.141 Y146.112 E13.25938
G1 X90.416 Y145.544 E13.29002
G1 X89.743 Y144.915 E13.32065
G1 X89.128 Y144.231 E13.35125
G1 X88.574 Y143.496 E13.38186
G1 X88.086 Y142.715 E13.41249
G1 X87.667 Y141.895 E13.44312
G1 X87.321 Y141.042 E13.47373
G1 X87.051 Y140.162 E13.50435
G1 X86.858 Y139.261 E13.535
G1 X86.744 Y138.348 E13.5656
G1 X86.713 Y137.777 E13.58462
G1 X86.704 Y137.444 E13.5957
G1 X86.7 Y137.158 E13.60521
G1 X86.701 Y98.031 E14.90658
G1 X86.71 Y97.366 E14.9287
G1 X86.762 Y96.446 E14.95935
G1 X86.894 Y95.535 E14.98997
G1 X87.105 Y94.639 E15.02058
G1 X87.392 Y93.764 E15.05121
G1 X87.755 Y92.918 E15.08183
G1 X88.189 Y92.106 E15.11245
G1 X88.692 Y91.335 E15.14307
G1 X89.261 Y90.611 E15.1737
G1 X89.889 Y89.939 E15.20429
G0 F6000 X90.281 Y90.117
G1 F1200 X90.962 Y89.524 E15.23432
G1 X91.694 Y88.994 E15.26438
G1 X92.469 Y88.531 E15.29441
G1 X93.282 Y88.138 E15.32444
G1 X94.127 Y87.818 E15.35449
G1 X94.996 Y87.575 E15.3845
G1 X95.884 Y87.409 E15.41455
G1 X97.023 Y87.313 E15.45257
G1 X97.344 Y87.304 E15.46325
G1 X97.63 Y87.3 E15.47276
G1 X136.993 Y87.3 E16.78198
G1 X137.837 Y87.311 E16.81006
G1 X138.739 Y87.364 E16.84011
G1 X139.632 Y87.496 E16.87013
G1 X140.51 Y87.707 E16.90017
G1 X141.366 Y87.995 E16.9302
G1 X142.193 Y88.357 E16.96023
G1 X142.985 Y88.792 E16.99028
G1 X143.736 Y89.294 E17.02033
G1 X144.439 Y89.861 E17.05037
G1 X145.089 Y90.488 E17.08041
G1 X145.681 Y91.17 E17.11044
G1 X146.211 Y91.901 E17.14048
G1 X146.673 Y92.677 E17.17051
G1 X147.066 Y93.49 E17.20055
G1 X147.384 Y94.335 E17.23058
G1 X147.627 Y95.205 E17.26062
G1 X147.792 Y96.093 E17.29066
G1 X147.887 Y97.223 E17.32838
G1 X147.896 Y97.543 E17.33902
G1 X147.9 Y97.83 E17.34857
G1 X147.899 Y136.89 E18.64771
G1 X147.89 Y137.617 E18.67189
G1 X147.839 Y138.519 E18.70194
G1 X147.708 Y139.413 E18.73199
G1 X147.499 Y140.291 E18.76201
G1 X147.213 Y141.148 E18.79206
G1 X146.852 Y141.976 E18.82211
G1 X146.42 Y142.768 E18.85211
G1 X145.919 Y143.52 E18.88217
G1 X145.353 Y144.224 E18.91221
G1 X144.728 Y144.875 E18.94223
G1 X144.047 Y145.469 E18.97228
G1 X143.316 Y146 E19.00233
G1 X142.542 Y146.464 E19.03235
G1 X141.729 Y146.858 E19.06239
G1 X140.885 Y147.178 E19.09242
G1 X140.015 Y147.423 E19.12248
G1 X139.128 Y147.589 E19.15249
G1 X137.977 Y147.687 E19.19091
G1 X137.656 Y147.696 E19.20159
G1 X137.37 Y147.7 E19.21111
G1 X97.875 Y147.699 E20.52472
G1 X97.177 Y147.69 E20.54793
G1 X96.276 Y147.639 E20.57795
G1 X95.382 Y147.507 E20.60801
G1 X94.504 Y147.298 E20.63802
G1 X93.647 Y147.011 E20.66808
G1 X92.82 Y146.65 E20.6981
G1 X92.027 Y146.217 E20.72815
G1 X91.276 Y145.716 E20.75817
G1 X90.572 Y145.15 E20.78822
G1 X89.921 Y144.524 E20.81826
G1 X89.328 Y143.843 E20.84829
G1 X88.798 Y143.112 E20.87832
G1 X88.334 Y142.337 E20.90837
G1 X87.94 Y141.524 E20.93841
G1 X87.62 Y140.68 E20.96844
G1 X87.376 Y139.81 E20.99849
G1 X87.21 Y138.922 E21.02854
G1 X87.113 Y137.767 E21.06709
G1 X87.104 Y137.434 E21.07817
G1 X87.1 Y137.158 E21.08735
G1 X87.101 Y98.036 E22.38855
G1 X87.11 Y97.371 E22.41067
G1 X87.162 Y96.469 E22.44072
G1 X87.294 Y95.576 E22.47074
G1 X87.504 Y94.698 E22.50077
G1 X87.791 Y93.841 E22.53083
G1 X88.153 Y93.014 E22.56086
G1 X88.586 Y92.222 E22.59088
G1 X89.088 Y91.471 E22.62092
G1 X89.655 Y90.767 E22.65099
G1 X90.281 Y90.117 E22.681
G1 F2700 E17.681
;MESH:Part Studio 1 - Part 6.stl
G0 F6000 X128.459 Y102.58
G0 X127.081 Y103.055
G0 X128.562 Y104.441
G0 X129.701 Y105.061
;TYPE:WALL-INNER
G1 F2700 E22.681
G1 F1200 X130.048 Y105.096 E22.6926
G1 X130.381 Y105.095 E22.70368
G1 X130.702 Y105.06 E22.71442
G1 X131.046 Y104.983 E22.72614
G1 X131.362 Y104.875 E22.73725
G1 X131.654 Y104.739 E22.74796
G1 X131.954 Y104.556 E22.75965
G1 X132.219 Y104.352 E22.77077
G1 X132.461 Y104.121 E22.7819
G1 X132.67 Y103.875 E22.79264
G1 X132.864 Y103.585 E22.80424
G1 X133.02 Y103.289 E22.81537
G1 X133.139 Y102.988 E22.82614
G1 X133.232 Y102.65 E22.8378
G1 X133.283 Y102.32 E22.8489
G1 X133.301 Y101.998 E22.85963
G1 X133.28 Y101.651 E22.87119
G1 X133.226 Y101.319 E22.88238
G1 X133.138 Y101.007 E22.89316
G1 X133.007 Y100.683 E22.90478
G1 X132.849 Y100.388 E22.91591
G1 X132.667 Y100.121 E22.92666
G1 X132.44 Y99.857 E22.93824
G1 X132.206 Y99.636 E22.94895
G1 X131.928 Y99.426 E22.96054
G1 X131.65 Y99.259 E22.97132
G1 X131.332 Y99.115 E22.98293
G1 X131.016 Y99.009 E22.99402
G1 X130.699 Y98.939 E23.00482
G1 X130.352 Y98.904 E23.01642
G1 X130.019 Y98.905 E23.02749
G1 X129.698 Y98.94 E23.03823
G1 X129.354 Y99.017 E23.04996
G1 X129.038 Y99.125 E23.06106
G1 X128.746 Y99.261 E23.07178
G1 X128.446 Y99.444 E23.08346
G1 X128.181 Y99.648 E23.09459
G1 X127.939 Y99.879 E23.10571
G1 X127.73 Y100.125 E23.11645
G1 X127.536 Y100.415 E23.12806
G1 X127.38 Y100.711 E23.13918
G1 X127.261 Y101.012 E23.14995
G1 X127.168 Y101.35 E23.16161
G1 X127.117 Y101.68 E23.17272
G1 X127.099 Y102.002 E23.18344
G1 X127.12 Y102.349 E23.195
G1 X127.174 Y102.681 E23.20619
G1 X127.262 Y102.993 E23.21697
G1 X127.393 Y103.317 E23.2286
G1 X127.551 Y103.612 E23.23973
G1 X127.733 Y103.879 E23.25047
G1 X127.96 Y104.143 E23.26206
G1 X128.194 Y104.364 E23.27276
G1 X128.472 Y104.574 E23.28435
G1 X128.75 Y104.741 E23.29513
G1 X129.068 Y104.885 E23.30675
G1 X129.384 Y104.991 E23.31783
G1 X129.701 Y105.061 E23.32863
G0 F6000 X129.764 Y104.665
;TYPE:WALL-OUTER
G1 F1200 X130.068 Y104.696 E23.33879
G1 X130.359 Y104.695 E23.34847
G1 X130.637 Y104.665 E23.35777
G1 X130.937 Y104.598 E23.36799
G1 X131.212 Y104.503 E23.37767
G1 X131.465 Y104.386 E23.38694
G1 X131.727 Y104.226 E23.39715
G1 X131.958 Y104.048 E23.40685
G1 X132.17 Y103.846 E23.41659
G1 X132.35 Y103.634 E23.42584
G1 X132.52 Y103.38 E23.43601
G1 X132.656 Y103.122 E23.44571
G1 X132.759 Y102.861 E23.45504
G1 X132.84 Y102.566 E23.46522
G1 X132.885 Y102.278 E23.47491
G1 X132.9 Y101.999 E23.4842
G1 X132.882 Y101.695 E23.49433
G1 X132.835 Y101.406 E23.50407
G1 X132.759 Y101.137 E23.51337
G1 X132.644 Y100.853 E23.52356
G1 X132.506 Y100.596 E23.53326
G1 X132.349 Y100.365 E23.54255
G1 X132.15 Y100.134 E23.55269
G1 X131.947 Y99.942 E23.56199
G1 X131.704 Y99.758 E23.57212
G1 X131.464 Y99.614 E23.58143
G1 X131.185 Y99.488 E23.59161
G1 X130.909 Y99.395 E23.6013
G1 X130.636 Y99.335 E23.6106
G1 X130.332 Y99.304 E23.62076
G1 X130.041 Y99.305 E23.63044
G1 X129.763 Y99.335 E23.63974
G1 X129.463 Y99.402 E23.64996
G1 X129.188 Y99.497 E23.65964
G1 X128.935 Y99.614 E23.66891
G1 X128.673 Y99.774 E23.67912
G1 X128.442 Y99.952 E23.68882
G1 X128.23 Y100.154 E23.69856
G1 X128.05 Y100.366 E23.70781
G1 X127.88 Y100.62 E23.71798
G1 X127.744 Y100.878 E23.72768
G1 X127.641 Y101.139 E23.73701
G1 X127.56 Y101.434 E23.74718
G1 X127.515 Y101.722 E23.75688
G1 X127.5 Y102.001 E23.76617
G1 X127.518 Y102.305 E23.7763
G1 X127.565 Y102.594 E23.78604
G1 X127.641 Y102.863 E23.79534
G1 X127.756 Y103.147 E23.80553
G1 X127.894 Y103.404 E23.81523
G1 X128.051 Y103.635 E23.82452
G1 X128.25 Y103.866 E23.83466
G1 X128.453 Y104.058 E23.84395
G1 X128.696 Y104.242 E23.85409
G1 X128.936 Y104.386 E23.8634
G1 X129.215 Y104.512 E23.87358
G1 X129.491 Y104.605 E23.88327
G1 X129.764 Y104.665 E23.89257
G0 F6000 X129.695 Y105.099
G1 F2700 E18.89257
G0 F6000 X128.365 Y104.732
G0 X129.016 Y103.402
G0 X106 Y103.387
G0 X106.662 Y104.713
G0 X105.302 Y105.06
;TYPE:WALL-INNER
G1 F2700 E23.89257
G1 F1200 X105.646 Y104.983 E23.90429
G1 X105.962 Y104.875 E23.9154
G1 X106.254 Y104.739 E23.92611
G1 X106.554 Y104.556 E23.9378
G1 X106.819 Y104.352 E23.94892
G1 X107.061 Y104.121 E23.96005
G1 X107.27 Y103.875 E23.97079
G1 X107.464 Y103.585 E23.98239
G1 X107.62 Y103.289 E23.99352
G1 X107.739 Y102.988 E24.00429
G1 X107.832 Y102.65 E24.01594
G1 X107.883 Y102.32 E24.02705
G1 X107.901 Y101.998 E24.03778
G1 X107.88 Y101.651 E24.04934
G1 X107.826 Y101.319 E24.06053
G1 X107.738 Y101.007 E24.07131
G1 X107.607 Y100.683 E24.08293
G1 X107.449 Y100.388 E24.09406
G1 X107.267 Y100.121 E24.10481
G1 X107.04 Y99.857 E24.11639
G1 X106.806 Y99.636 E24.1271
G1 X106.528 Y99.426 E24.13868
G1 X106.25 Y99.259 E24.14947
G1 X105.932 Y99.115 E24.16108
G1 X105.616 Y99.009 E24.17217
G1 X105.299 Y98.939 E24.18296
G1 X104.952 Y98.904 E24.19456
G1 X104.619 Y98.905 E24.20564
G1 X104.298 Y98.94 E24.21638
G1 X103.954 Y99.017 E24.2281
G1 X103.638 Y99.125 E24.23921
G1 X103.346 Y99.261 E24.24993
G1 X103.046 Y99.444 E24.26161
G1 X102.781 Y99.648 E24.27274
G1 X102.539 Y99.879 E24.28386
G1 X102.33 Y100.125 E24.2946
G1 X102.136 Y100.415 E24.3062
G1 X101.98 Y100.711 E24.31733
G1 X101.861 Y101.012 E24.3281
G1 X101.768 Y101.35 E24.33976
G1 X101.717 Y101.68 E24.35086
G1 X101.699 Y102.002 E24.36159
G1 X101.72 Y102.349 E24.37315
G1 X101.774 Y102.681 E24.38434
G1 X101.862 Y102.993 E24.39512
G1 X101.993 Y103.317 E24.40675
G1 X102.151 Y103.612 E24.41788
G1 X102.333 Y103.879 E24.42862
G1 X102.56 Y104.143 E24.4402
G1 X102.794 Y104.364 E24.45091
G1 X103.072 Y104.574 E24.4625
G1 X103.35 Y104.741 E24.47328
G1 X103.668 Y104.885 E24.48489
G1 X103.984 Y104.991 E24.49598
G1 X104.301 Y105.061 E24.50678
G1 X104.648 Y105.096 E24.51838
G1 X104.981 Y105.095 E24.52945
G1 X105.302 Y105.06 E24.54019
G0 F6000 X105.237 Y104.665
;TYPE:WALL-OUTER
G1 F1200 X105.537 Y104.598 E24.55042
G1 X105.812 Y104.503 E24.56009
G1 X106.065 Y104.386 E24.56936
G1 X106.327 Y104.226 E24.57958
G1 X106.558 Y104.048 E24.58927
G1 X106.77 Y103.846 E24.59901
G1 X106.95 Y103.634 E24.60826
G1 X107.12 Y103.38 E24.61843
G1 X107.256 Y103.122 E24.62813
G1 X107.359 Y102.861 E24.63746
G1 X107.44 Y102.566 E24.64764
G1 X107.485 Y102.278 E24.65733
G1 X107.5 Y101.999 E24.66663
G1 X107.482 Y101.695 E24.67675
G1 X107.435 Y101.406 E24.68649
G1 X107.359 Y101.137 E24.69579
G1 X107.244 Y100.853 E24.70598
G1 X107.106 Y100.596 E24.71568
G1 X106.949 Y100.365 E24.72497
G1 X106.75 Y100.134 E24.73511
G1 X106.547 Y99.942 E24.74441
G1 X106.304 Y99.758 E24.75454
G1 X106.064 Y99.614 E24.76385
G1 X105.785 Y99.488 E24.77404
G1 X105.509 Y99.395 E24.78372
G1 X105.236 Y99.335 E24.79302
G1 X104.932 Y99.304 E24.80318
G1 X104.641 Y99.305 E24.81286
G1 X104.363 Y99.335 E24.82216
G1 X104.063 Y99.402 E24.83239
G1 X103.788 Y99.497 E24.84206
G1 X103.535 Y99.614 E24.85133
G1 X103.273 Y99.774 E24.86154
G1 X103.042 Y99.952 E24.87124
G1 X102.83 Y100.154 E24.88098
G1 X102.65 Y100.366 E24.89023
G1 X102.48 Y100.62 E24.9004
G1 X102.344 Y100.878 E24.9101
G1 X102.241 Y101.139 E24.91943
G1 X102.16 Y101.434 E24.92961
G1 X102.115 Y101.722 E24.9393
G1 X102.1 Y102.001 E24.94859
G1 X102.118 Y102.305 E24.95872
G1 X102.165 Y102.594 E24.96846
G1 X102.241 Y102.863 E24.97776
G1 X102.356 Y103.147 E24.98795
G1 X102.494 Y103.404 E24.99765
G1 X102.651 Y103.635 E25.00694
G1 X102.85 Y103.866 E25.01708
G1 X103.053 Y104.058 E25.02638
G1 X103.296 Y104.242 E25.03651
G1 X103.536 Y104.386 E25.04582
G1 X103.815 Y104.512 E25.05601
G1 X104.091 Y104.605 E25.06569
G1 X104.364 Y104.665 E25.07499
G1 X104.668 Y104.696 E25.08515
G1 X104.959 Y104.695 E25.09483
